!!!!SEGMENT: pl-kk--kk-i-626--001-004_lisinski-karol--vesperae-laudate-pueri.krn
!!!cenid: 18xx:4609
!!!COM: Lisiński, Karol
!!!COM-rismID: pe50053612
!!!CDT:
!!!CNT: Polish
!!!OPR: Vesperae
!!!OTL: Laudate pueri
!!!OMV: 004
!!!PDT:
!!!AGN: Sacred; Vespers
!!!YEC: Copyright 2022 Narodowy Instytut Fryderyka Chopina (https://polishscores.org)
!!!YEM: License CC-BY-4.0 (https://creativecommons.org/licenses/by/4.0)
!!!SMS-siglum: PL-Kk
!!!SMS-shelfmark: Kk.I.626
!!!SMS-variant: Violino Primo: Kk.I.626: 31; Violino Secundo: Kk.I.626: 41-42
!!!SMS-altvar: Violino Primo: Kk.I.626: 26; Kk.I.626: Violino Secundo: 36
!!!SMS-shelfwork: 001-004 M
!!!NIFC-rismSourceID: 1001210167
!!!NIFC-rismChildID: 1001210167
!!!NIFC-islandoraID: pl-kk:20059
!!!URL-pdf-islandora: https://repozytorium.nifc.pl/islandora/object/pl-kk:20059/datastream/PDF/view
!!!URL-scan: https://polish.musicsources.pl/pl/lokalizacje/galeria/rekopisy/7260/2 @EN{Scan on Polish Music Sources Website} @PL{Skany w portalu Dziedzictwo Muzyki Polskiej w otwartym dostępie}
!!!IIIF:
!!!ONB-nifc: UWAGA: Części Nieszporów: 1. Dixit Dominus, 2. Confitebor, 3. Beatus vir, 4. Laudate pueri, 5. Laudate Dominum, 6. Magnificat. Gloria wchodzi w ramy ww. części. do Uwaga: Partia Organo na skanach 57-59 i 2. Uwaga: Violino Primo i Secundo wg odpisów spisanych ręką tą samą co reszta partii (s. 29-33 i 39-44). Proszę uzupełnić pola SMS:variant i SMS:altvar.
!!!AIN: 1 bass 1 canto 1 clrno 1 organ 1 tenor 1 viole 1 violn
!!!key:
**kern	**fba	**kern	**kernyy	**dynam	**kern	**dynam	**kern	**text	**kern	**text	**kernyy	**text	**kern	**text	**kern	**kernyy
*part10	*	*part9	*part8	*part8	*part7	*part7	*part6	*part6	*part5	*part5	*part4	*part4	*part3	*part3	*part2	*part1
*staff10	*	*staff9	*staff8	*	*staff7	*	*staff6	*staff6	*staff5	*staff5	*staff4	*staff4	*staff3	*staff3	*staff2	*staff1
*I"Organo	*	*I"Violone	*I"Violino Secundo	*	*I"Violino Primo	*	*I"Basso.	*	*I"Tenore	*	*I"Alto	*	*I"Canto	*	*I"Clarino Secondo	*I"Clarino Primo
*I'Org.	*	*I'V-c.	*I'Vn II	*	*I'Vn I	*	*I'B.	*	*I'T.	*	*I'A.	*	*I'C.	*	*I'Cl. in B♭	*I'Cl. in B♭
*Iorgan	*	*Iviole	*Ivioln	*	*Ivioln	*	*Ibass	*	*Itenor	*	*Ialto	*	*Icanto	*	*Iclrno	*Iclrno
*ICklav	*	*ICstr	*ICstr	*	*ICstr	*	*ICvox	*	*ICvox	*	*ICvox	*	*ICvox	*	*ICbras	*ICbras
*clefF4	*	*clefF4	*clefG2	*	*clefG2	*	*clefF4	*	*clefC4	*	*clefC3	*	*clefC1	*	*clefG2	*clefG2
*	*	*	*	*	*	*	*	*	*	*	*	*	*	*	*ITrd4c7	*ITrd4c7
*k[b-]	*	*k[b-]	*k[b-]	*	*k[b-]	*	*k[b-]	*	*k[b-]	*	*k[b-]	*	*k[b-]	*	*k[b-]	*k[b-]
*F:	*	*F:	*F:	*	*F:	*	*F:	*	*F:	*	*F:	*	*F:	*	*F:	*F:
*M2/4	*	*M2/4	*M2/4	*	*M2/4	*	*M2/4	*	*M2/4	*	*M2/4	*	*M2/4	*	*M2/4	*M2/4
=1	=1	=1	=1	=1	=1	=1	=1	=1	=1	=1	=1	=1	=1	=1	=1	=1
!LO:TX:a:t=Solo	!	!	!	!	!	!	!	!	!	!	!	!	!	!	!	!
!LO:TX:b:t=Laudate pueri	!	!LO:TX:b:t=Laudate pueri	!LO:TX:b:t=Laudate Pueri	!	!	!	!LO:TX:b:t=Laudate Pueri	!	!	!	!LO:TX:b:t=Laudate.	!	!LO:TX:b:t=Laudate.	!	!	!
!LO:TX:a:t=poco vivace	!	!LO:TX:a:t=poco vivace	!LO:TX:a:t=poco vivace	!	!LO:TX:b:t=Laudate pueri	!LO:DY:a:t=piano	!LO:N:vis=00	!	!	!	!LO:N:vis=00	!	!LO:N:vis=00	!	!	!
4F\	.	4F\	4c/	.	4a/	p	0r	.	8r	.	0r	.	0r	.	2r	2r
.	.	.	.	.	.	.	.	.	8F/	Lau-	.	.	.	.	.	.
4r	.	4r	4r	.	4r	.	.	.	8A/	-da-	.	.	.	.	.	.
.	.	.	.	.	.	.	.	.	8c\	-te	.	.	.	.	.	.
=2	=2	=2	=2	=2	=2	=2	=2	=2	=2	=2	=2	=2	=2	=2	=2	=2
8r	.	8r	8r	.	8r	.	.	.	4.c\	pu-	.	.	.	.	2r	2r
8E\L	6	8E\L	8c/L	.	8g/L	.	.	.	.	.	.	.	.	.	.	.
8C\	.	8C\	8c/	.	8e/	.	.	.	.	.	.	.	.	.	.	.
8E\J	6	8E\J	8c/J	.	8g/J	.	.	.	16B-\	-e-	.	.	.	.	.	.
.	.	.	.	.	.	.	.	.	16c\	-ri	.	.	.	.	.	.
=3	=3	=3	=3	=3	=3	=3	=3	=3	=3	=3	=3	=3	=3	=3	=3	=3
8F\L	.	8F\L	4c/	.	8a/L	.	.	.	16A/	Do-	.	.	.	.	2r	2r
.	.	.	.	.	.	.	.	.	16G/	-mi-	.	.	.	.	.	.
16F\L	.	16F\L	.	.	16a/L	.	.	.	8F/	-num	.	.	.	.	.	.
16G\JJ	.	16G\JJ	.	.	16a/JJ	.	.	.	.	.	.	.	.	.	.	.
8A\L	6	8A\L	8r	.	8cc\L	.	.	.	8r	.	.	.	.	.	.	.
8F\J	.	8F\J	8c/	.	8a\J	.	.	.	8c\	Lau-	.	.	.	.	.	.
=4	=4	=4	=4	=4	=4	=4	=4	=4	=4	=4	=4	=4	=4	=4	=4	=4
!	!	!	!	!	!	!	!	!	!LO:TX:a:tP:problem:mixed beam	!	!	!	!	!	!	!
8B-\L	.	8B-\L	8B-/L	.	8dd\L	.	.	.	8d\L	-da-	.	.	.	.	2r	2r
8A\	6	8A\	8f/	.	8cc\J	.	.	.	8F/J	.	.	.	.	.	.	.
8G\	7	8G\	8f/	.	8.b-\L	.	.	.	8E/L	.	.	.	.	.	.	.
8C\J	5	8C\J	8e/J	.	.	.	.	.	8B-/J	.	.	.	.	.	.	.
.	.	.	.	.	16b-\Jk	.	.	.	.	.	.	.	.	.	.	.
!	!	!	!	!	!	!	!	!	!LO:LB:g=original	!	!	!	!	!	!	!
=5	=5	=5	=5	=5	=5	=5	=5	=5	=5	=5	=5	=5	=5	=5	=5	=5
!	!	!	!	!	!	!	!LO:N:vis=00	!	!	!	!LO:N:vis=00	!	!LO:N:vis=00	!	!	!
8F\L	.	8F\L	4f/	.	8a/L	.	0r	.	16A/LL	.	0r	.	0r	.	2r	2r
.	.	.	.	.	.	.	.	.	16G/JJ	.	.	.	.	.	.	.
16F\L	.	16F\L	.	.	16a/L	.	.	.	8F/	-te	.	.	.	.	.	.
16G\JJ	.	16G\JJ	.	.	16b-/JJ	.	.	.	.	.	.	.	.	.	.	.
8A\L	6	8A\L	8r	.	8cc\L	.	.	.	8r	.	.	.	.	.	.	.
8F\J	.	8F\J	8f/	.	8a\J	.	.	.	8c\	Lau-	.	.	.	.	.	.
!	!	!LO:LB:g=original	!	!	!	!	!	!	!	!	!	!	!	!	!	!
=6	=6	=6	=6	=6	=6	=6	=6	=6	=6	=6	=6	=6	=6	=6	=6	=6
8B-\L	.	8B-\L	8f/L	.	8dd\L	.	.	.	8d\	-da-	.	.	.	.	2r	2r
8A\	6	8A\	8f/	.	8cc\	.	.	.	8F/	-te	.	.	.	.	.	.
8G\	7	8G\	8f/	.	8.b-\	.	.	.	8E/	no-	.	.	.	.	.	.
8C\J	7	8C\J	8e/J	.	.	.	.	.	8B-\	-men	.	.	.	.	.	.
.	.	.	.	.	16b-\Jk	.	.	.	.	.	.	.	.	.	.	.
=7	=7	=7	=7	=7	=7	=7	=7	=7	=7	=7	=7	=7	=7	=7	=7	=7
8F\L	.	8F\L	4f/	.	8a\L	.	.	.	16A/	Do-	.	.	.	.	2r	2r
.	.	.	.	.	.	.	.	.	16G/	-mi-	.	.	.	.	.	.
16F\L	.	16F\L	.	.	16a\L	.	.	.	8F/	-ni	.	.	.	.	.	.
16G\JJ	.	16G\JJ	.	.	16b-\JJ	.	.	.	.	.	.	.	.	.	.	.
!	!	!	!LO:LB:g=original	!	!LO:LB:g=original	!	!	!	!	!	!	!	!	!	!	!
8A\L	6	8A\L	8r	.	8cc\L	.	.	.	8r	.	.	.	.	.	.	.
8F\J	.	8F\J	8f/	.	8a\J	.	.	.	8A\	Lau-	.	.	.	.	.	.
!LO:LB:g=original	!	!	!	!	!	!	!	!	!	!	!	!	!	!	!	!
=8	=8	=8	=8	=8	=8	=8	=8	=8	=8	=8	=8	=8	=8	=8	=8	=8
4E\	6	4E\	8g/L	.	4g/	.	.	.	16G'\LL	-da-	.	.	.	.	2r	2r
.	.	.	.	.	.	.	.	.	16c'\	.	.	.	.	.	.	.
.	.	.	8c/J	.	.	.	.	.	16c'\	.	.	.	.	.	.	.
.	.	.	.	.	.	.	.	.	16c'\JJ	.	.	.	.	.	.	.
8r	.	8r	8r	.	8r	.	.	.	4cT\	.	.	.	.	.	.	.
8E\	.	8E\	8b-/	.	8g/	.	.	.	.	.	.	.	.	.	.	.
=9	=9	=9	=9	=9	=9	=9	=9	=9	=9	=9	=9	=9	=9	=9	=9	=9
!	!	!	!	!	!	!	!LO:N:vis=0	!	!	!	!LO:N:vis=0	!	!LO:N:vis=0	!	!	!
4BBn/	6	4BBn/	4g/	.	4dd\	.	1r	.	16G'\LL	.	1r	.	1r	.	2r	2r
.	.	.	.	.	.	.	.	.	16d'\	.	.	.	.	.	.	.
.	.	.	.	.	.	.	.	.	16d'\	.	.	.	.	.	.	.
.	.	.	.	.	.	.	.	.	16d'\JJ	.	.	.	.	.	.	.
8r	.	8r	8r	.	8r	.	.	.	4dT\	.	.	.	.	.	.	.
8G\	.	8G\	8d/	.	8bn\	.	.	.	.	.	.	.	.	.	.	.
!	!	!	!	!	!	!	!	!	!LO:PB:g=original	!	!	!	!	!	!	!
=10	=10	=10	=10	=10	=10	=10	=10	=10	=10	=10	=10	=10	=10	=10	=10	=10
8C\L	.	8C\L	4e/	.	4cc\	.	.	.	8.e\	.	.	.	.	.	2r	2r
8D\	.	8D\	.	.	.	.	.	.	.	.	.	.	.	.	.	.
.	.	.	.	.	.	.	.	.	16d\	-te	.	.	.	.	.	.
8E\	6	8E\	4r	.	4r	.	.	.	8c\	no-	.	.	.	.	.	.
8F\J	6	8F\J	.	.	.	.	.	.	8d\	-men	.	.	.	.	.	.
=11	=11	=11	=11	=11	=11	=11	=11	=11	=11	=11	=11	=11	=11	=11	=11	=11
!LO:TX:a:t=P:problem:mixed beam	!	!LO:TX:a:t=P:problem:mixed beam	!	!	!	!	!	!	!	!	!	!	!	!	!	!
8G/L	.	8G\L	2r	.	2r	.	2r	.	4G/	Do-	2r	.	2r	.	2r	2r
8F\	4	8F\	.	.	.	.	.	.	.	.	.	.	.	.	.	.
8G\	3	8G\	.	.	.	.	.	.	4Bn\	-mi-	.	.	.	.	.	.
8GG\J	n	8GG/J	.	.	.	.	.	.	.	.	.	.	.	.	.	.
!	!	!LO:LB:g=original	!	!	!	!	!	!	!	!	!	!	!	!	!	!
=12	=12	=12	=12	=12	=12	=12	=12	=12	=12	=12	=12	=12	=12	=12	=12	=12
!LO:TX:a:t=P:problem:mixed beam	!	!LO:TX:a:t=P:problem:mixed beam	!	!	!	!	!	!	!	!	!	!	!	!	!	!
!LO:TX:a:t=Tu	!	!	!	!	!	!	!	!	!	!	!	!	!	!	!	!
8C/L	.	8C/L	8r	.	8r	.	8r	.	8c\	-ni	8r	.	8r	.	8r	8r
8c\	.	8c\	16g/LL	.	16ee\LL	.	8c\	Sit	8c\	sit	8g\	Sit	8cc\	Sit	8c/L	8g\L
.	.	.	16g/JJ	.	16ee\JJ	.	.	.	.	.	.	.	.	.	.	.
8c\	.	8c\	16g/LL	.	16ee\LL	.	8c\	no-	8c\	no-	8g\	no-	8cc\	no-	8c/	8g\
.	.	.	16cc/	.	16ee\	.	.	.	.	.	.	.	.	.	.	.
8B-\J	4 2	8B-\J	16cc/	.	16ee\	.	8B-\	-men	8c\	-men	8g\	-men	8cc\	-men	8c/J	8g\J
.	.	.	16cc/JJ	.	16ee\JJ	.	.	.	.	.	.	.	.	.	.	.
=13	=13	=13	=13	=13	=13	=13	=13	=13	=13	=13	=13	=13	=13	=13	=13	=13
8A\L	6	8A\L	16cc\LL	.	16ff\LL	.	8A\	D(o-	8c\	D(omi)-	8a\	Do-	8cc\	Do-	16f\LL	16a\LL
.	.	.	16cc\	.	16ff\	.	.	.	.	.	.	.	.	.	16f\	16a\
8F\	.	8F\	16a\	.	16ff\	.	16F\	-mi)-	16c\	-ni	16a\	-mi-	16cc\	-mi-	16f\	16a\
.	.	.	16a\JJ	.	16ff\JJ	.	16F\	-ni	16c\	be-	16a\	-ni	16cc\	-ni	16f\JJ	16a\JJ
!	!	!	!LO:LB:g=original	!	!	!	!	!	!	!	!	!	!	!	!LO:TX:a:t=Problem&colon;mixed beam	!
8E\	6	8E\	16cc\LL	.	16gg\LL	.	8E\	be-	8c\	-ne-	8g\	be-	8cc\	be-	8c\L	8g\L
.	.	.	16cc\	.	16gg\	.	.	.	.	.	.	.	.	.	.	.
8C\J	7	8C\J	16cc\	.	16gg\	.	8C/	-ne-	8c\	-dic-	8g\	-ne-	8b-\	-ne-	8g\J	8cc\J
.	.	.	16cc\JJ	.	16gg\JJ	.	.	.	.	.	.	.	.	.	.	.
=14	=14	=14	=14	=14	=14	=14	=14	=14	=14	=14	=14	=14	=14	=14	=14	=14
8F\L	.	8F\L	16cc\LL	.	16aa\LL	.	8F\	-dic-	8c\	-tum	8a\	-dic-	8a\	-dic-	8f\L	8a\L
.	.	.	16cc\	.	16aa\	.	.	.	.	.	.	.	.	.	.	.
8A\	6	8A\	16cc\	.	16ff\	.	8A\	-tum	8d\	ex	8f\	-tum	8cc\	-tum	8f\	8cc\
.	.	.	16cc\JJ	.	16ff\JJ	.	.	.	.	.	.	.	.	.	.	.
8G\	6\	8G\	16ee\LL	.	16bb-\LL	.	8G\	ex	8e\	hoc	8g\	ex	8b-\	ex	8f\	8b-\
.	.	.	16ee\	.	16bb-\	.	.	.	.	.	.	.	.	.	.	.
8F\J	.	8F\J	16ff\	.	16aa\	.	8F\	hoc	8f\	nunc	8a\	hoc	8a\	hoc	8a\J	8a\J
.	.	.	16ff\JJ	.	16aa\JJ	.	.	.	.	.	.	.	.	.	.	.
!	!	!	!	!	!LO:LB:g=original	!	!	!	!LO:LB:g=original	!	!LO:LB:g=original	!	!LO:PB:g=original	!	!	!
=15	=15	=15	=15	=15	=15	=15	=15	=15	=15	=15	=15	=15	=15	=15	=15	=15
4B-\	76	4B-\	4dd\	.	8aa\	.	4B-\	nunc	(8d\L	.	8a\L	nunc	(8dd\	nunc	8a\L	4dd\
.	.	.	.	.	4gg\	.	.	.	8B-\J)	.	8g\J	.	8gg\)	.	[8g\	.
4A\	.	4A\	4cc\	.	.	.	4A\	et	8c\L	et	8g\L	et	8cc\L	et	8g\]	4cc\
.	.	.	.	.	8ff\	.	.	.	8A\J	.	8f\J	.	8ff\J	.	8f\J	.
!	!	!	!	!	!	!	!LO:LB:g=original	!	!	!	!	!	!	!	!	!
=16	=16	=16	=16	=16	=16	=16	=16	=16	=16	=16	=16	=16	=16	=16	=16	=16
4G\	76\	4G\	4b-/	.	8ff\L	.	4G\	ue-	4B-\	us-	8f\L	us-	4b-\	us-	8f\L	4b-\
.	.	.	.	.	8ee\J	.	.	.	.	.	8e\J	.	.	.	8g\J	.
4F\	.	4F\	4a/	.	16ff\LL	.	8F\	-que	8c\	-que	8f\	-que	8a\	-que	4a\	4a\
.	.	.	.	.	16ff\	.	.	.	.	.	.	.	.	.	.	.
.	.	.	.	.	16ff\	.	8F\	in	8c\	in	8f\	in	8a\	in	.	.
.	.	.	.	.	16ff\JJ	.	.	.	.	.	.	.	.	.	.	.
!LO:LB:g=original	!	!	!	!	!	!	!	!	!	!	!	!	!	!	!	!
=17	=17	=17	=17	=17	=17	=17	=17	=17	=17	=17	=17	=17	=17	=17	=17	=17
8c\L	.	8c\L	8g/L	.	8ee\L	.	8c\L	sae-	[2c\	sae-	8e\	sae-	8g\L	sae-	8c/L	8g\L
16F\L	.	16F\L	8f/	.	16aa\L	.	16F\L	.	.	.	4.f\	.	16a\L	.	8f/J	8a\J
16G\JJ	.	16G\JJ	.	.	16gg\JJ	.	16G\JJ	.	.	.	.	.	16b-\JJ	.	.	.
8A\L	.	8A\L	8cc/	.	8ff\L	.	8A\L	.	.	.	.	.	8cc\L	.	8r	8r
8F\J	.	8F\J	8ff/J	.	8aa\J	.	8F\J	.	.	.	.	.	8a\J	.	8f\	8a\
!	!	!LO:LB:g=original	!	!	!	!	!	!	!	!	!	!	!	!	!	!
=18	=18	=18	=18	=18	=18	=18	=18	=18	=18	=18	=18	=18	=18	=18	=18	=18
!LO:TX:a:t=P:problem:mixed beam	!	!LO:TX:a:t=P:problem:mixed beam	!	!	!	!	!	!	!	!	!	!	!	!	!	!
8c\L	6 4	8c\L	16ff\LL	.	16aa\LL	.	8c\	.	16c\]	.	16f\	.	16a\	.	16f\LL	8a\L
.	.	.	16ee\	.	16gg\	.	.	.	16c\	-cu-	16f\	-cu-	16g\	-cu-	16c\J	.
8C/J	3	8C/J	16ee\	.	16gg\	.	16C/	-cu-	8c\	-lum	8e\	-lum	8g\	-lum	8c\J	16g\L
.	.	.	16ee\JJ	.	16gg\JJ	.	16C/	-lum	.	.	.	.	.	.	.	16g\JJ
!	!	!	!LO:PB:g=original	!	!	!	!	!	!	!	!	!	!	!	!	!
8r	.	8r	16ee\LL	.	16gg\LL	.	8r	.	8r	.	8r	.	8r	.	8r	8r
.	.	.	16ee\	.	16gg\	.	.	.	.	.	.	.	.	.	.	.
8Bn\	.	8Bn\	16dd\	.	16ff\	.	8Bn\	us-	8G/	us-	8f\	us	8dd\	us-	8g\	8dd\
.	.	.	16dd\JJ	.	16ff\JJ	.	.	.	.	.	.	.	.	.	.	.
=19	=19	=19	=19	=19	=19	=19	=19	=19	=19	=19	=19	=19	=19	=19	=19	=19
!LO:TX:a:t=P:problem:mixed beam	!	!LO:TX:a:t=P:problem:mixed beam	!	!	!	!	!	!	!	!	!	!	!	!	!	!
8c\L	.	8c\L	8cc\L	.	8ee\L	.	8c\	-que	8G/	-que	8e\	que	8cc\	-que	8g\L	8cc\L
8F\	5	8F\	8cc\	.	8dd\	.	8F\	in	8A/	in	8e\	in	8cc\	in	16a\L	8dd\
.	.	.	.	.	.	.	.	.	.	.	.	.	.	.	16g\JJ	.
8G\	6 4	8G\	8.ccT\	.	8.ddT\	.	8.G\	sae-	8.G/	sae-	8.d\	sae-	8.cc\	sae-	4g\	8cc\
8GG/J	n	8GG/J	.	.	.	.	.	.	.	.	.	.	.	.	.	8bX\J
.	.	.	16b-\Jk	.	16dd\Jk	.	16GG/	-cu-	16G/	-cu-	16d\	-cu-	16bn\	-cu-	.	.
!	!	!	!	!	!	!	!	!	!	!	!LO:LB:g=original	!	!LO:LB:g=original	!	!	!
=20	=20	=20	=20	=20	=20	=20	=20	=20	=20	=20	=20	=20	=20	=20	=20	=20
4C/	.	4C/	8cc\L	.	8cc\L	.	4C/	-lum	4G/	-lum	4e\	-lum	8cc\	-lum	4g\	4cc\
.	.	.	8cc\	.	8cc\	.	.	.	.	.	.	.	8r	.	.	.
4r	.	4r	8cc\	.	8ee\	.	4r	.	4r	.	4r	.	4r	.	8r	8r
*	*	*	*	*	*Xtuplet	*	*	*	*	*	*	*	*	*	*	*
.	.	.	8cc\J	.	24ffT\L	.	.	.	.	.	.	.	.	.	8c/	8dd\
.	.	.	.	.	24ee\	.	.	.	.	.	.	.	.	.	.	.
.	.	.	.	.	24ff\JJ	.	.	.	.	.	.	.	.	.	.	.
!	!	!	!	!	!	!	!	!	!LO:LB:g=original	!	!	!	!	!	!	!
=21	=21	=21	=21	=21	=21	=21	=21	=21	=21	=21	=21	=21	=21	=21	=21	=21
!	!	!	!	!	!	!	!LO:N:vis=00	!	!LO:N:vis=00	!	!	!	!LO:N:vis=00	!	!	!
8r	.	8r	8r	.	4.gg\	.	0r	.	0r	.	2r	.	0r	.	8g\L	8g\L
!	!	!	!LO:TX:a:t=Solo	!	!	!	!	!	!	!	!	!	!	!	!	!
8BBn/L	6	8BBn/L	8dd\L	.	.	.	.	.	.	.	.	.	.	.	8g\	8g\
8GG/	.	8GG/	8bn\	.	.	.	.	.	.	.	.	.	.	.	8g\	8g\
8BB/J	6	8BB/J	8dd\J	.	8ff\	.	.	.	.	.	.	.	.	.	8g\J	8g\J
!	!	!	!	!	!LO:LB:g=original	!	!	!	!	!	!	!	!	!	!	!
=22	=22	=22	=22	=22	=22	=22	=22	=22	=22	=22	=22	=22	=22	=22	=22	=22
4C/	.	4C/	4g/	.	4ee\	.	.	.	.	.	8r	.	.	.	4c/	8a\L
!	!	!	!	!	!	!	!	!	!	!	!LO:TX:a:t=Solo	!	!	!	!	!
.	.	.	.	.	.	.	.	.	.	.	8c\	a	.	.	.	8a\J
4r	.	4r	4r	.	4r	.	.	.	.	.	8e\	so-	.	.	4r	4r
.	.	.	.	.	.	.	.	.	.	.	24f\LL	-lis	.	.	.	.
.	.	.	.	.	.	.	.	.	.	.	24e\	.	.	.	.	.
.	.	.	.	.	.	.	.	.	.	.	24f\JJ	.	.	.	.	.
=23	=23	=23	=23	=23	=23	=23	=23	=23	=23	=23	=23	=23	=23	=23	=23	=23
8r	.	8r	8r	.	8r	.	.	.	.	.	4.g\	or-	.	.	2r	2r
8GG/L	.	8GG/L	8d/L	.	8bn\L	.	.	.	.	.	.	.	.	.	.	.
8BBn/	.	8BBn/	8d/	.	8dd\	.	.	.	.	.	.	.	.	.	.	.
8GG/J	.	8GG/J	8d/J	.	8b\J	.	.	.	.	.	8f\	-tu	.	.	.	.
=24	=24	=24	=24	=24	=24	=24	=24	=24	=24	=24	=24	=24	=24	=24	=24	=24
4.C/	.	4.C/	4e/	.	4g/	.	.	.	.	.	8e\	us-	.	.	2r	2r
.	.	.	.	.	.	.	.	.	.	.	8c\	-que	.	.	.	.
.	.	.	8r	.	8r	.	.	.	.	.	8e\	ad	.	.	.	.
!	!	!	!	!	!	!	!	!	!	!	!LO:TUP:a:problem:klamra łukowa	!	!	!	!	!
*	*	*	*	*	*	*	*	*	*	*	*Xtuplet	*	*	*	*	*
8D/	6\	8D/	8e/	.	8bn\	.	.	.	.	.	24f\LL	oc-	.	.	.	.
.	.	.	.	.	.	.	.	.	.	.	24e\	.	.	.	.	.
.	.	.	.	.	.	.	.	.	.	.	24f\JJ	.	.	.	.	.
!LO:PB:g=original	!	!LO:LB:g=original	!	!	!	!	!	!	!	!	!	!	!	!	!	!
=25	=25	=25	=25	=25	=25	=25	=25	=25	=25	=25	=25	=25	=25	=25	=25	=25
!	!	!	!	!	!	!	!LO:N:vis=00	!	!LO:N:vis=00	!	!	!	!LO:N:vis=00	!	!	!
8E\L	.	8E\L	4c/	.	4cc\	.	0r	.	0r	.	8g\	-ca-	0r	.	2r	2r
16E\L	.	16E\L	.	.	.	.	.	.	.	.	8c\	-sum	.	.	.	.
16D\JJ	.	16D\JJ	.	.	.	.	.	.	.	.	.	.	.	.	.	.
!	!	!	!LO:LB:g=original	!	!	!	!	!	!	!	!	!	!	!	!	!
8E\L	.	8E\L	8r	.	8r	.	.	.	.	.	8r	.	.	.	.	.
8C\J	.	8C\J	8g/	.	8cc\	.	.	.	.	.	8g\	lau-	.	.	.	.
!	!	!	!	!	!	!	!	!	!	!	!LO:LB:g=original	!	!	!	!	!
=26	=26	=26	=26	=26	=26	=26	=26	=26	=26	=26	=26	=26	=26	=26	=26	=26
8F\L	6	8F\L	8a/L	.	8cc\L	.	.	.	.	.	8a\	-da-	.	.	2r	2r
8F\	6	8F\	8a/	.	8dd\J	.	.	.	.	.	16d\	-bi-	.	.	.	.
.	.	.	.	.	.	.	.	.	.	.	16d\	-le	.	.	.	.
8E\	6\	8E\	8g/	.	8cc#X\L	.	.	.	.	.	8c#X\	no-	.	.	.	.
8E\J	.	8E\J	8g/J	.	8cc#\J	.	.	.	.	.	8g\	-men	.	.	.	.
=27	=27	=27	=27	=27	=27	=27	=27	=27	=27	=27	=27	=27	=27	=27	=27	=27
!	!	!	!	!	!LO:TX:a:t=P:problem:mixed beam	!	!	!	!	!	!	!	!	!	!	!
8D\L	.	8D\L	4f/	.	8dd\L	.	.	.	.	.	16f\	Do-	.	.	2r	2r
.	.	.	.	.	.	.	.	.	.	.	16e\	-mi-	.	.	.	.
8E\	.	8E\	.	.	8d/J	.	.	.	.	.	8d\	-ni	.	.	.	.
8F\	6	8F\	8r	.	4dd\	.	.	.	.	.	8r	.	.	.	.	.
8D\J	.	8D\J	8f/	.	.	.	.	.	.	.	8f\	lau-	.	.	.	.
=28	=28	=28	=28	=28	=28	=28	=28	=28	=28	=28	=28	=28	=28	=28	=28	=28
8E\L	6	8E\L	8g\L	.	4ccn\	.	.	.	.	.	8g\	-da-	.	.	2r	2r
8E\	.	8E\	8g\	.	.	.	.	.	.	.	16c\	-bi-	.	.	.	.
.	.	.	.	.	.	.	.	.	.	.	16c\	-le	.	.	.	.
8D\	7	8D\	8bn\	.	4ff\	.	.	.	.	.	8Bn/	no-	.	.	.	.
8GG\J	7 n	8GG\J	8b\J	.	.	.	.	.	.	.	8f\	-men	.	.	.	.
=29	=29	=29	=29	=29	=29	=29	=29	=29	=29	=29	=29	=29	=29	=29	=29	=29
!	!	!	!	!	!	!	!LO:N:vis=0	!	!LO:N:vis=0	!	!	!	!LO:N:vis=0	!	!	!
4C/	.	4C/	4g/	.	16ee\LL	.	1r	.	1r	.	16e\LL	Do-	1r	.	2r	2r
.	.	.	.	.	16cc\	.	.	.	.	.	16c\	.	.	.	.	.
.	.	.	.	.	16dd\	.	.	.	.	.	16d\	.	.	.	.	.
.	.	.	.	.	16ee\JJ	.	.	.	.	.	16e\JJ	.	.	.	.	.
4r	.	4r	4r	.	16ff\LL	.	.	.	.	.	16f\LL	.	.	.	.	.
.	.	.	.	.	16gg\	.	.	.	.	.	16g\	.	.	.	.	.
.	.	.	.	.	16aa\	.	.	.	.	.	16a\	.	.	.	.	.
.	.	.	.	.	16bbn\JJ	.	.	.	.	.	16bn\JJ	.	.	.	.	.
!	!	!	!	!	!LO:LB:g=original	!	!	!	!	!	!LO:LB:g=original	!	!	!	!	!
=30	=30	=30	=30	=30	=30	=30	=30	=30	=30	=30	=30	=30	=30	=30	=30	=30
!	!	!	!	!	!	!	!	!	!	!	!LO:TX:a:t=P:problem:mixed beam	!	!	!	!	!
8C\L	.	8C\L	2r	.	4ccc\	.	.	.	.	.	8cc\L	.	.	.	2r	2r
16E\L	.	16E\L	.	.	.	.	.	.	.	.	8c/J	.	.	.	.	.
16F\JJ	.	16F\JJ	.	.	.	.	.	.	.	.	.	.	.	.	.	.
!LO:TX:a:t=P:problem:mixed beam	!	!LO:TX:a:t=P:problem:mixed beam	!	!	!	!	!	!	!	!	!	!	!	!	!	!
8G/L	.	8G\L	.	.	4r	.	.	.	.	.	8.d\	.	.	.	.	.
8GG/J	n	8GG/J	.	.	.	.	.	.	.	.	.	.	.	.	.	.
.	.	.	.	.	.	.	.	.	.	.	16e\	-mi-	.	.	.	.
!	!	!LO:LB:g=original	!	!	!	!	!LO:LB:g=original	!	!	!	!	!	!	!	!	!
=31	=31	=31	=31	=31	=31	=31	=31	=31	=31	=31	=31	=31	=31	=31	=31	=31
!	!	!	!	!LO:DY:a	!	!	!	!	!	!	!	!	!	!	!	!
8C/L	.	8C/L	8r	f	8r	.	8r	.	8r	.	8c\	-ni	8r	.	8r	8r
8C/	.	8C/	16ee\LL	.	16gg\LL	.	8C/	Ex-	8c\	ex-	8g\	ex-	8ee\	ex-	16c/LL	16c/LL
.	.	.	16ee\JJ	.	16gg\JJ	.	.	.	.	.	.	.	.	.	16c/JJ	16c/JJ
8C/	.	8C/	16ee\LL	.	16gg\LL	.	8C/	-cel-	8c\	-cel-	8g\	-cel-	8ee\	-cel-	16c/LL	16c/LL
.	.	.	16ee\	.	16gg\	.	.	.	.	.	.	.	.	.	16c/	16c/
8C/J	.	8C/J	16ee\	.	16gg\	.	8C/	-sus	8c\	-sus	8g\	-sus	8ee\	-sus	16c/	16c/
.	.	.	16ee\JJ	.	16gg\JJ	.	.	.	.	.	.	.	.	.	16c/JJ	16c/JJ
=32	=32	=32	=32	=32	=32	=32	=32	=32	=32	=32	=32	=32	=32	=32	=32	=32
8C#X/L	5-	8C#X/L	16ee\LL	.	16gg\LL	.	8C#X/	su-	8A/	su-	8g\	su-	8ee\	su-	8A/L	8c/L
.	.	.	16ee\	.	16gg\	.	.	.	.	.	.	.	.	.	.	.
8C#/	.	8C#/	16ee\	.	16gg\	.	8C#/	-per	8A/	-per	8g\	-per	8ee\	-per	16A/L	16c/L
.	.	.	16ee\JJ	.	16gg\JJ	.	.	.	.	.	.	.	.	.	16A/JJ	16c/JJ
!	!	!	!LO:LB:g=original	!	!	!	!	!	!	!	!	!	!	!	!	!
8C#/	.	8C#/	16a/LL	.	16gg\LL	.	8C#/	om-	8A/	om-	8g\	om-	8ee\	om-	16A/LL	16c/LL
.	.	.	16a/	.	16gg\	.	.	.	.	.	.	.	.	.	16A/	16c/
8C#/J	.	8C#/J	16a/	.	16gg\	.	8C#/	-nes	8A/	-nes	8g\	-nes	8ee\	-nes	16A/	16c/
.	.	.	16a/JJ	.	16gg\JJ	.	.	.	.	.	.	.	.	.	16A/JJ	16c/JJ
=33	=33	=33	=33	=33	=33	=33	=33	=33	=33	=33	=33	=33	=33	=33	=33	=33
8D\L	.	8D\L	8a\L	.	8ff\L	.	8D\	gen-	8A/	gen-	8f\	gen-	8dd\	gen-	4A/	4A/
8E\	6\	8E\	8cc#X\	.	8gg\	.	8E\	-tes	8G/	-tes	8g\	-tes	8cc#X\	-tes	.	.
8F\	6	8F\	8a\	.	8aa\	.	8F\	Do-	8F/	Do-	8a\	Do-	8dd\	Do-	4r	4r
8G\J	-	8G\J	8dd\J	.	8bb-X\J	.	8G\	-mi-	8c\	-mi-	8b-X\	-mi-	8dd\	-mi-	.	.
=34	=34	=34	=34	=34	=34	=34	=34	=34	=34	=34	=34	=34	=34	=34	=34	=34
4A\	n	4A\	16cc#X\LL	.	16ee\LL	.	4A\	-nus	4A\	-nus	4e\	-nus	4cc#X\	-nus	2r	4A/
.	.	.	16cc#\	.	16a\	.	.	.	.	.	.	.	.	.	.	.
.	.	.	16cc#\	.	16a\	.	.	.	.	.	.	.	.	.	.	.
.	.	.	16cc#\JJ	.	16a\JJ	.	.	.	.	.	.	.	.	.	.	.
4r	.	4r	16cc#\LL	.	8a/L	.	4r	.	4r	.	4r	.	8r	.	.	4r
.	.	.	16cc#\	.	.	.	.	.	.	.	.	.	.	.	.	.
.	.	.	16cc#\	.	8a/J	.	.	.	.	.	.	.	8a\	et	.	.
.	.	.	16cc#\JJ	.	.	.	.	.	.	.	.	.	.	.	.	.
!LO:LB:g=original	!	!	!	!	!	!	!	!	!	!	!	!	!LO:LB:g=original	!	!	!
=35	=35	=35	=35	=35	=35	=35	=35	=35	=35	=35	=35	=35	=35	=35	=35	=35
2r	.	2r	2r	.	8dd\L	.	2r	.	2r	.	2r	.	8dd\	su-	2r	2r
.	.	.	.	.	8ee\J	.	.	.	.	.	.	.	8ee\	-per	.	.
.	.	.	.	.	8ff\L	.	.	.	.	.	.	.	8ff\	cae-	.	.
.	.	.	.	.	8gg\J	.	.	.	.	.	.	.	8gg\	-los	.	.
!	!	!	!	!	!	!	!	!	!LO:LB:g=original	!	!LO:LB:g=original	!	!	!	!	!
=36	=36	=36	=36	=36	=36	=36	=36	=36	=36	=36	=36	=36	=36	=36	=36	=36
!	!	!	!	!	!LO:TX:a:t=P:problem:mixed beam	!	!	!	!	!	!	!	!	!	!	!
8r	.	8r	8r	.	16aa\LL	.	8r	.	8r	.	8r	.	4aa\	glo-	8A/L	8A/L
.	.	.	.	.	16a/	.	.	.	.	.	.	.	.	.	.	.
8A\L	.	8A\L	8cc#X\L	.	16a/	.	8A\	glo-	8c#X\	glo-	4a\	glo-	.	.	16A/L	16A/L
.	.	.	.	.	16a/JJ	.	.	.	.	.	.	.	.	.	16A/JJ	16A/JJ
!	!	!	!	!	!LO:TX:a:t=P:problem:mixed beam	!	!	!	!	!	!	!	!	!	!	!
8B-\	.	8B-\	8dd\	.	16a/LL	.	8Bn\	-ri-	8d\	-ri-	.	.	8a\	-ri-	16A/LL	16A/LL
.	.	.	.	.	16aa\	.	.	.	.	.	.	.	.	.	16A/	16A/
8c#X\J	6	8c#X\J	8ee\J	.	16aa\	.	8c#X\	-a	8e\	-a	16a\	-ri-	8a\	-a	16A/	16A/
.	.	.	.	.	16aa\JJ	.	.	.	.	.	16a\	-a	.	.	16A/JJ	16A/JJ
!	!	!	!	!	!LO:LB:g=original	!	!LO:LB:g=original	!	!	!	!	!	!	!	!	!
=37	=37	=37	=37	=37	=37	=37	=37	=37	=37	=37	=37	=37	=37	=37	=37	=37
!LO:TX:a:t=P:problem:mixed beam	!	!LO:TX:a:t=P:problem:mixed beam	!	!	!	!	!	!	!	!	!	!	!	!	!	!
*	*	*	*	*	*	*	*	*	*	*	*	*ij	*	*ij	*	*
8d\L	.	8d\L	8a/L	.	8ff\L	.	8d\	glo-	8d\	glo-	8f\	glo-	8ee\	glo-	8A/L	8A/L
8G\	-	8G\	8b-/	.	8ee\	.	16G\	-ri-	16d\	-ri-	16g\	-ri-	16ee\	-ri-	8A/J	8A/
.	.	.	.	.	.	.	16G\	-a	16d\	-a	16g\	-a	16ee\	-a	.	.
*	*	*	*	*	*	*	*	*	*	*	*	*Xij	*	*Xij	*	*
!	!	!	!	!	!	!	!LO:TX:a:t=P:problem:mixed beam	!	!	!	!	!	!	!	!	!
8A\	#	8A\	8a/	.	8.ee\	.	8A\L	e-	4A/	e-	4e\	e-	8.cc#X\L	e-	8A/L	8A/
8AA\J	.	8AA/J	8a/J	.	.	.	8AA/J	.	.	.	.	.	.	.	8A/J	8A/J
.	.	.	.	.	16ee\Jk	.	.	.	.	.	.	.	16dd\Jk	.	.	.
!	!	!LO:LB:g=original	!	!	!	!	!	!	!	!	!	!	!	!	!	!
=38	=38	=38	=38	=38	=38	=38	=38	=38	=38	=38	=38	=38	=38	=38	=38	=38
4D\	-	4D\	4a/	.	4dd\	.	4D/	-jus	4A/	-jus.	4f\	-jus	4dd\	-jus	4A/	4A/
4r	.	4r	4r	.	8ff\L	.	4r	.	4r	.	4r	.	4r	.	4r	4r
*	*	*	*	*	*tuplet	*	*	*	*	*	*	*	*	*	*	*
!	!	!	!	!	!LO:TUP:a:problem:klamra łukowa	!	!	!	!	!	!	!	!	!	!	!
.	.	.	.	.	24gg\L	.	.	.	.	.	.	.	.	.	.	.
.	.	.	.	.	24ff\	.	.	.	.	.	.	.	.	.	.	.
.	.	.	.	.	24gg\JJ	.	.	.	.	.	.	.	.	.	.	.
!	!	!	!LO:LB:g=original	!	!	!	!	!	!	!	!	!	!	!	!	!
=39	=39	=39	=39	=39	=39	=39	=39	=39	=39	=39	=39	=39	=39	=39	=39	=39
!LO:TX:a:t=Solo	!	!LO:TX:a:t=Solo	!	!LO:DY:a	!	!	!	!	!LO:TX:a:t=10	!	!LO:N:vis=00	!	!LO:N:vis=00	!	!	!
!	!	!	!	!	!	!	!	!	!LO:N:vis=00	!	!	!	!	!	!	!
8r	.	8r	8r	p	4.aa\	.	2r	.	0r	.	0r	.	0r	.	2r	2r
8C#X/L	6	8C#X/L	8ee\L	.	.	.	.	.	.	.	.	.	.	.	.	.
8AA/	.	8AA/	8cc#X\	.	.	.	.	.	.	.	.	.	.	.	.	.
8C#/J	.	8C#/J	8ee\J	.	8gg\	.	.	.	.	.	.	.	.	.	.	.
=40	=40	=40	=40	=40	=40	=40	=40	=40	=40	=40	=40	=40	=40	=40	=40	=40
4D\	.	4D\	4dd\	.	4ff\	.	8r	.	.	.	.	.	.	.	2r	2r
.	.	.	.	.	.	.	8D/	Quis	.	.	.	.	.	.	.	.
4r	.	4r	4r	.	4r	.	8F\	si-	.	.	.	.	.	.	.	.
.	.	.	.	.	.	.	8G\	-cut	.	.	.	.	.	.	.	.
=41	=41	=41	=41	=41	=41	=41	=41	=41	=41	=41	=41	=41	=41	=41	=41	=41
8C#X/L	.	8C#X/L	8a/L	.	8ee\L	.	8A\	Do-	.	.	.	.	.	.	2r	2r
8C#/	6	8C#/	8a/	.	8ee\J	.	16B-X\	-mi-	.	.	.	.	.	.	.	.
.	-5	.	.	.	.	.	16A\	-nus	.	.	.	.	.	.	.	.
8C#/	.	8C#/	8a/	.	8ee\L	.	8G\	De-	.	.	.	.	.	.	.	.
8C#/J	.	8C#/J	8a/J	.	8ee\J	.	8E\	-us	.	.	.	.	.	.	.	.
!	!	!	!	!	!	!	!LO:LB:g=original	!	!	!	!	!	!	!	!	!
=42	=42	=42	=42	=42	=42	=42	=42	=42	=42	=42	=42	=42	=42	=42	=42	=42
8D\L	-	8D\L	4a/	.	8.ee\L	.	8F\	nos-	.	.	.	.	.	.	2r	2r
16D\L	.	16D\L	.	.	.	.	8D\	-ter	.	.	.	.	.	.	.	.
16E\JJ	.	16E\JJ	.	.	16a\Jk	.	.	.	.	.	.	.	.	.	.	.
8F\L	6	8F\L	4r	.	4dd\	.	8d\	qui	.	.	.	.	.	.	.	.
8D\J	6\	8D\J	.	.	.	.	8c\	in	.	.	.	.	.	.	.	.
=43	=43	=43	=43	=43	=43	=43	=43	=43	=43	=43	=43	=43	=43	=43	=43	=43
!	!	!	!LO:N:vis=0	!	!	!	!	!	!LO:N:vis=00	!	!LO:N:vis=00	!	!LO:N:vis=00	!	!	!
8D/L	.	8D/L	1r	.	4r	.	8B-\	al-	0r	.	0r	.	0r	.	2r	2r
8C/J	.	8C/J	.	.	.	.	8A\	-tis	.	.	.	.	.	.	.	.
4BB-X/	76	4BB-X/	.	.	8r	.	8.A\	ha-	.	.	.	.	.	.	.	.
.	.	.	.	.	8dd\	.	.	.	.	.	.	.	.	.	.	.
.	.	.	.	.	.	.	16G\	-bi-	.	.	.	.	.	.	.	.
=44	=44	=44	=44	=44	=44	=44	=44	=44	=44	=44	=44	=44	=44	=44	=44	=44
!LO:TX:a:t=P:problem:mixed beam	!	!LO:TX:a:t=P:problem:mixed beam	!	!	!	!	!	!	!	!	!	!	!	!	!	!
8AA/L	.	8AA/L	.	.	4cc#X\	.	4A\	-tat	.	.	.	.	.	.	2r	2r
8A\	#	8A\	.	.	.	.	.	.	.	.	.	.	.	.	.	.
8A\	.	8A\	.	.	4r	.	8r	.	.	.	.	.	.	.	.	.
8A\J	.	8A\J	.	.	.	.	16A\	et	.	.	.	.	.	.	.	.
.	.	.	.	.	.	.	16Bn\	hu-	.	.	.	.	.	.	.	.
!LO:LB:g=original	!	!LO:PB:g=original	!	!	!	!	!	!	!	!	!	!	!	!	!	!
=45	=45	=45	=45	=45	=45	=45	=45	=45	=45	=45	=45	=45	=45	=45	=45	=45
8A\L	.	8A\L	8r	.	8r	.	4.c#X\	-mi-	.	.	.	.	.	.	2r	2r
8A\	.	8A\	8e/L	.	8cc\L	.	.	.	.	.	.	.	.	.	.	.
8G\	4 2	8G\	8e/	.	8cc\	.	.	.	.	.	.	.	.	.	.	.
8G\J	.	8G\J	8e/J	.	8cc\J	.	16B-\	-li-	.	.	.	.	.	.	.	.
.	.	.	.	.	.	.	16A\	-a	.	.	.	.	.	.	.	.
!	!	!	!	!	!LO:LB:g=original	!	!	!	!	!	!	!	!	!	!	!
=46	=46	=46	=46	=46	=46	=46	=46	=46	=46	=46	=46	=46	=46	=46	=46	=46
4F\	6	4F\	4d/	.	4dd\	.	8.d\	re-	.	.	.	.	.	.	2r	2r
.	.	.	.	.	.	.	16D/	-spi-	.	.	.	.	.	.	.	.
!	!	!	!	!	!	!	!LO:LB:g=original	!	!	!	!	!	!	!	!	!
8r	.	8r	8r	.	8r	.	8D/	-cit	.	.	.	.	.	.	.	.
8B-\	.	8B-\	8b-/	.	8b-/	.	8B-\	in	.	.	.	.	.	.	.	.
=47	=47	=47	=47	=47	=47	=47	=47	=47	=47	=47	=47	=47	=47	=47	=47	=47
!LO:TX:a:t=|	!	!	!	!	!LO:TX:b:t=|	!	!	!	!LO:N:vis=0	!	!LO:N:vis=0	!	!LO:N:vis=0	!	!	!
8A\L	.	8A\L	8a/L	.	8a/L	.	8A\	cae-	1r	.	1r	.	1r	.	2r	2r
!LO:TX:a:t=|	!	!	!	!	!LO:TX:b:t=|	!	!	!	!	!	!	!	!	!	!	!
8G\	.	8G\	8g/	.	8g/	.	8G\	-lo	.	.	.	.	.	.	.	.
!LO:TX:a:t=|	!	!	!	!	!LO:TX:b:t=|	!	!	!	!	!	!	!	!	!	!	!
8F\	.	8F\	8f/	.	8f/	.	8F\	et	.	.	.	.	.	.	.	.
!LO:TX:a:t=|	!	!	!	!	!LO:TX:b:t=|	!	!	!	!	!	!	!	!	!	!	!
8D\J	.	8D\J	8d/J	.	8d/J	.	8D\	in	.	.	.	.	.	.	.	.
!	!	!	!LO:LB:g=original	!	!	!	!	!	!	!	!	!	!	!	!	!
=48	=48	=48	=48	=48	=48	=48	=48	=48	=48	=48	=48	=48	=48	=48	=48	=48
!LO:TX:a:t=P:problem:mixed beam	!	!LO:TX:a:t=P:problem:mixed beam	!	!	!LO:TX:b:t=|	!	!	!	!	!	!	!	!	!	!	!
!LO:TX:a:t=|	!	!	!	!	!	!	!	!	!	!	!	!	!	!	!	!
8G\L	.	8G\L	8g/L	.	8g/L	.	8G\L	ter-	.	.	.	.	.	.	2r	2r
!LO:TX:a:t=|	!	!	!	!	!LO:TX:b:t=|	!	!	!	!	!	!	!	!	!	!	!
8E\	.	8E\	8e/	.	8e/J	.	8E\J	.	.	.	.	.	.	.	.	.
!LO:TX:a:t=|	!	!	!	!	!LO:TX:b:t=|	!	!LO:TX:a:t=P:problem:mixed beam	!	!	!	!	!	!	!	!	!
8A\	.	8A\	8a/	.	8a/L	.	8A\L	.	.	.	.	.	.	.	.	.
!LO:TX:a:t=|	!	!	!	!	!LO:TX:b:t=|	!	!	!	!	!	!	!	!	!	!	!
8AA/J	.	8AA/J	8A/J	.	8A/J	.	8AA/J	.	.	.	.	.	.	.	.	.
!	!	!	!	!	!	!	!	!	!	!	!	!	!LO:LB:g=original	!	!	!
=49	=49	=49	=49	=49	=49	=49	=49	=49	=49	=49	=49	=49	=49	=49	=49	=49
!	!	!	!	!	!LO:TX:a:t=P:problem:mixed beam	!LO:DY:a:t=for	!	!	!	!	!	!	!	!	!	!
8D\L	-	8D/L	16d/LL	.	16d/LL	f	8D/	-ra	8.A/	Sus-	8.f\	Sus-	8.dd\	Sus-	8A/L	8A/L
.	.	.	16a/	.	16dd\	.	.	.	.	.	.	.	.	.	.	.
8D\	.	8D/	16a/	.	16dd\	.	16D/	Sus-	.	.	.	.	.	.	8A/	8A/
.	.	.	16a/JJ	.	16dd\JJ	.	16D/	-ci-	16A/	-ci-	16f\	-ci-	16dd\	-ci-	.	.
8C\	4 2	8C/	16a/LL	.	16ff#X\LL	.	8D/	-tans	8A/	-tans	8f#X\	-tans	8dd\	-tans	8A/	8A/
.	.	.	16a/	.	16ff#\	.	.	.	.	.	.	.	.	.	.	.
8C\J	.	8C/J	16a/	.	16ff#\	.	8D/	a	8A/	a	8f#\	a	8dd\	a	8A/J	8A/J
.	.	.	16a/JJ	.	16ff#\JJ	.	.	.	.	.	.	.	.	.	.	.
=50	=50	=50	=50	=50	=50	=50	=50	=50	=50	=50	=50	=50	=50	=50	=50	=50
!	!	!	!	!	!LO:TX:a:t=P:problem:mixed beam	!	!	!	!	!	!	!	!	!	!	!
8BB-/L	6	8BB-/L	8b-/L	.	8gg\L	.	8BB-/	ter-	8B-\	ter-	8g\	ter-	8dd\	ter-	8g\L	4g\
8GG/J	-	8GG/J	16g/L	.	16g/L	.	8GG/	-ra	8B-\	-ra	8g\	-ra	8dd\	-ra	8g\	.
.	.	.	16g/JJ	.	16g/JJ	.	.	.	.	.	.	.	.	.	.	.
!	!	!	!	!	!	!	!	!	!LO:LB:g=original	!	!LO:LB:g=original	!	!	!	!	!
4r	.	4r	16b-\LL	.	16b-X\LL	.	8r	.	8r	.	8r	.	8r	.	8g\	4g\
.	.	.	16b-\	.	16b-\	.	.	.	.	.	.	.	.	.	.	.
*	*	*	*	*	*	*	*	*	*	*	*	*ij	*	*	*	*
.	.	.	16dd\	.	16dd\	.	8GG/	a	8B-\	a	8g\	a	8dd\	a	8g\J	.
.	.	.	16dd\JJ	.	16dd\JJ	.	.	.	.	.	.	.	.	.	.	.
!	!	!LO:LB:g=original	!	!	!	!	!LO:PB:g=original	!	!	!	!	!	!	!	!	!
=51	=51	=51	=51	=51	=51	=51	=51	=51	=51	=51	=51	=51	=51	=51	=51	=51
!	!	!	!	!	!	!	!LO:TX:a:t=P:problem:mixed beam	!	!	!	!	!	!	!	!	!
8C/L	.	8C/L	16cc/LL	.	16gg\LL	.	8C/L	ter-	4.c\	ter-	4.g\	ter-	4.ee\	ter-	8g\L	8g\L
.	.	.	16g/	.	16ee\	.	.	.	.	.	.	.	.	.	.	.
8C/	.	8C/	16g/	.	16ee\	.	8c\J	.	.	.	.	.	.	.	8g\	8g\
.	.	.	16g/JJ	.	16ee\JJ	.	.	.	.	.	.	.	.	.	.	.
8BB-/	.	8BB-/	16g/LL	.	16ee\LL	.	4B-\	-ra	.	.	.	.	.	.	8g\	8g\
.	.	.	16g/	.	16ee\	.	.	.	.	.	.	.	.	.	.	.
8BB-/J	4 2	8BB-/J	16g/	.	16ee\	.	.	.	8c\	-ra	8g\	-ra	8ee\	-ra	8g\J	8g\J
.	.	.	16g/JJ	.	16ee\JJ	.	.	.	.	.	.	.	.	.	.	.
*	*	*	*	*	*	*	*	*	*	*	*	*Xij	*	*	*	*
!	!	!	!	!	!LO:LB:g=original	!	!	!	!	!	!	!	!	!	!	!
=52	=52	=52	=52	=52	=52	=52	=52	=52	=52	=52	=52	=52	=52	=52	=52	=52
!LO:TX:a:t=P:problem:mixed beam	!	!LO:TX:a:t=P:problem:mixed beam	!	!	!	!	!	!	!	!	!	!	!	!	!	!
8AA\L	6	8AA/L	16a/LL	.	16ff\LL	.	8A\	in-	8c\	in-	8a\	in-	8ff\	in-	8f\L	8a\L
.	.	.	16a/	.	16ff\	.	.	.	.	.	.	.	.	.	.	.
8FF\	.	8FF/	16a/	.	16ff\	.	16F\	-o-	16c\	-o-	16a\	-o-	16f/	-o-	8f\	8a\
.	.	.	16a/JJ	.	16ff\JJ	.	16F\	-pem	16c\	-pem	16a\	-pem	16f/	-pem	.	.
!	!	!	!LO:LB:g=original	!	!	!	!	!	!	!	!	!	!	!	!	!
8F/	.	8F\	16a/LL	.	16ff\LL	.	8F\	et	8c\	et	8a\	et	8a\	et	8f\	8a\
.	.	.	16a/	.	16ff\	.	.	.	.	.	.	.	.	.	.	.
8F/J	.	8F\J	16a/	.	16cc\	.	8F\	de	8c\	de	8a\	de	8cc\	de	8a\J	8cc\J
.	.	.	16a/JJ	.	16cc\JJ	.	.	.	.	.	.	.	.	.	.	.
=53	=53	=53	=53	=53	=53	=53	=53	=53	=53	=53	=53	=53	=53	=53	=53	=53
8F\L	6 4	8F\L	16b-/LL	.	16dd\LL	.	8F\	ste-	8B-\	ste-	8b-\	ste-	8dd\	ste-	8b-\L	8dd\L
.	.	.	16b-/	.	16dd\	.	.	.	.	.	.	.	.	.	.	.
8F\	3	8F\	16a/	.	16cc\	.	16F\	-co-	16c\	-co-	16a\	-co-	16cc\	-co-	8a\	8cc\
.	.	.	16a/JJ	.	16cc\JJ	.	16F\	-re	16c\	-re	16a\	-re	16cc\	-re	.	.
!	!	!	!	!	!	!	!	!	!	!	!	!	!LO:LB:g=original	!	!	!
8F\	6 4	8F\	16b-/LL	.	16dd\LL	.	8F\	e-	8B-\	e-	8b-\	e-	8dd\	e-	8b-\	8dd\
.	.	.	16b-/	.	16dd\	.	.	.	.	.	.	.	.	.	.	.
8F\J	7 2	8F\J	16g/	.	16ee\	.	16F\	-ri-	16B-\	-ri-	16g\	-ri-	16ee\	-ri-	8g\J	8ee\J
.	.	.	16g/JJ	.	16ee\JJ	.	16F\	-gens	16B-\	-gens	16g\	-gens	16ee\	-gens	.	.
=54	=54	=54	=54	=54	=54	=54	=54	=54	=54	=54	=54	=54	=54	=54	=54	=54
8F\L	8	8F\L	16a/LL	.	16ff\LL	.	8.F\	pau-	8.A\	pau-	8.a\	pau-	8.ff\	pau-	8a\L	8ff\L
.	.	.	16a/	.	16cc\	.	.	.	.	.	.	.	.	.	.	.
8F\	.	8F\	16a/	.	16a\	.	.	.	.	.	.	.	.	.	8f\	16f\L
.	.	.	16a/JJ	.	16f\JJ	.	16F\	-pe-	16c\	-pe-	16a\	-pe-	16f/	-pe-	.	16g\JJ
8F\	.	8F\	16a/LL	.	16a\LL	.	8F\	-rem	8c\	-rem	8a\	-rem	8f/	-rem	8f\	8a\L
.	.	.	16a/	.	16cc\	.	.	.	.	.	.	.	.	.	.	.
8F\J	.	8F\J	16a/	.	16ff\	.	8F\	ut	8c\	ut	8a\	ut	8cc\	ut	8f\J	8a\J
.	.	.	16a/JJ	.	16ff\JJ	.	.	.	.	.	.	.	.	.	.	.
!LO:LB:g=original	!	!	!	!	!	!	!	!	!LO:LB:g=original	!	!LO:LB:g=original	!	!	!	!	!
=55	=55	=55	=55	=55	=55	=55	=55	=55	=55	=55	=55	=55	=55	=55	=55	=55
8E\L	4 2	8E\L	16a\LL	.	16aa\LL	.	8E-X\	col-	8F/	col-	8a\	col-	8cc\	col-	8f\L	8a\L
.	.	.	16cc\	.	16aa\	.	.	.	.	.	.	.	.	.	.	.
8E\	.	8E\	16cc\	.	16aa\	.	8E-\	-lo-	16F/	-lo-	16a\	-lo-	16cc\	-lo-	8f\	8a\
.	.	.	16cc\JJ	.	16aa\JJ	.	.	.	16F/	-cet	16a\	-cet	16cc\	-cet	.	.
8E\	.	8E\	16cc\LL	.	16aa\LL	.	16E-\	-cet	8F/	e-	8a\	e-	8cc\	e-	8f\	8a\
.	.	.	16ff\	.	16aa\	.	16E-\	e-	.	.	.	.	.	.	.	.
!	!	!	!	!	!	!	!LO:LB:g=original	!	!	!	!	!	!	!	!	!
8E\J	.	8E\J	16ff\	.	16aa\	.	8E-\	-um	8F/	-um	8a\	-um	8cc\	-um	8f\J	8a\J
.	.	.	16ff\JJ	.	16aa\JJ	.	.	.	.	.	.	.	.	.	.	.
=56	=56	=56	=56	=56	=56	=56	=56	=56	=56	=56	=56	=56	=56	=56	=56	=56
8D\L	.	8D\L	16ff\LL	.	16bbn\LL	.	8D/	cum	8F/	cum	8f\	e-	8bn\	e-	8f\L	8bX\L
.	.	.	16ff\	.	16bb\	.	.	.	.	.	.	.	.	.	.	.
8D\	6\	8D\	16ff\	.	16bb\	.	8D/	Prin-	8G/	Prin-	8f\	-um	8b\	-um	8f\	8b\
.	.	.	16ff\JJ	.	16bb\JJ	.	.	.	.	.	.	.	.	.	.	.
!	!	!	!LO:LB:g=original	!	!	!	!	!	!	!	!	!	!	!	!	!
8D\	.	8D\	16ff\LL	.	16bb\LL	.	8D/	-ci-	8G/	-ci-	8f\	Prin-	8b\	Prin-	8f\	8b\
.	.	.	16ff\	.	16bb\	.	.	.	.	.	.	.	.	.	.	.
8D\J	.	8D\J	16ff\	.	16bb\	.	16D/	-pi-	16G/	-pi-	16f\	-ci-	16b\	-ci-	8f\J	8b\J
.	.	.	16ff\JJ	.	16bb\JJ	.	16D/	-bus	16G/	-bus	16f\	-pi-	16b\	-pi-	.	.
!	!	!LO:LB:g=original	!	!	!LO:LB:g=original	!	!	!	!	!	!	!	!LO:LB:g=original	!	!	!
=57	=57	=57	=57	=57	=57	=57	=57	=57	=57	=57	=57	=57	=57	=57	=57	=57
*	*	*	*	*	*	*	*	*ij	*	*ij	*	*	*	*	*	*
8G\L	-	8G\L	16dd\LL	.	16bb-X\LL	.	8G\	cum	8G/	cum	8d\	-bus	8b-\	-bus	8g\L	8b-\L
.	.	.	16dd\	.	16bb-\	.	.	.	.	.	.	.	.	.	.	.
*	*	*	*	*	*	*	*	*	*	*	*	*ij	*	*ij	*	*
8G\	.	8G\	16dd\	.	16bb-\	.	8G\	Prin-	8G/	Prin-	8d\	prin-	8b-\	prin-	8g\	8b-\
.	.	.	16dd\JJ	.	16bb-\JJ	.	.	.	.	.	.	.	.	.	.	.
8G\	.	8G\	16dd\LL	.	16bb-\LL	.	8G\	-ci-	8G/	-ci-	8d\	-ci-	8b-\	-ci-	8g\	8b-\
.	.	.	16dd\	.	16bb-\	.	.	.	.	.	.	.	.	.	.	.
8G\J	.	8G\J	16dd\	.	16bb-\	.	16G\	-pi-	16G/	-pi-	16d\	-pi-	16b-\	-pi-	8g\J	8b-\J
.	.	.	16dd\JJ	.	16bb-\JJ	.	16G\	-bus	16G/	-bus	16d\	-bus	16b-\	-bus	.	.
*	*	*	*	*	*	*	*	*Xij	*	*Xij	*	*Xij	*	*Xij	*	*
=58	=58	=58	=58	=58	=58	=58	=58	=58	=58	=58	=58	=58	=58	=58	=58	=58
8E\L	6 5	8E\L	16cc\LL	.	16bb-\LL	.	(8E\L	po-	4G/	po-	4g\	po-	4cc\	po-	16g\LL	8a\L
.	.	.	16cc\	.	16bb-\	.	.	.	.	.	.	.	.	.	16g\	.
8D\	.	8D\	16cc\	.	16bb-\	.	8D\J)	.	.	.	.	.	.	.	16g\	8g\
.	.	.	16cc\JJ	.	16bb-\JJ	.	.	.	.	.	.	.	.	.	16g\	.
8E\	.	8E\	16cc\LL	.	16bb-\LL	.	8E\	-pu-	8c\	-pu-	8g\	-pu-	8cc\	-pu-	16g\	8g\
.	.	.	16cc\	.	16bb-\	.	.	.	.	.	.	.	.	.	16g\	.
8C\J	-7	8C\J	16cc\	.	16bb-\	.	16C/	-li	8c\	-li	8g\	-li	8b-\	-li	16g\	8g\J
.	.	.	16cc\JJ	.	16bb-\JJ	.	16C/	.	.	.	.	.	.	.	16g\JJ	.
!	!	!	!	!	!	!	!	!	!LO:LB:g=original	!	!LO:LB:g=original	!	!	!	!	!
=59	=59	=59	=59	=59	=59	=59	=59	=59	=59	=59	=59	=59	=59	=59	=59	=59
!LO:TX:a:t=P:problem:mixed beam	!	!LO:TX:a:t=P:problem:mixed beam	!	!	!	!	!LO:TX:a:t=P:problem:mixed beam	!	!	!	!	!	!	!	!	!
8F\L	.	8F\L	8cc/L	.	8aa\L	.	8F^/L	su-	8c\L	su-	(4.f\	su-	8a/L	su-	8f\L	4g\
8B-\	6	8B-\	16b-/L	.	16gg\L	.	8B-/	.	8d\J	.	.	.	[8g/J	.	8f\	.
.	.	.	16a/JJ	.	16ff\JJ	.	.	.	.	.	.	.	.	.	.	.
8c\	4	8c\	8.g/L	.	8.ff\L	.	8c/	.	4c\	.	.	.	4g/]	.	8f\	4g\
8C/J	3	8C/J	.	.	.	.	8C\J	.	.	.	8e\)	.	.	.	8c\J	.
.	.	.	16g/Jk	.	16ee\Jk	.	.	.	.	.	.	.	.	.	.	.
=60	=60	=60	=60	=60	=60	=60	=60	=60	=60	=60	=60	=60	=60	=60	=60	=60
4F\	.	4F\	4a/	.	4ff\	.	4F\	-i	8A/	-i	4f\	-i	4f/	-i	4A/	4f\
.	.	.	.	.	.	.	.	.	8F/	qui	.	.	.	.	.	.
4r	.	4r	4r	.	4r	.	4r	.	8A/	La-	4r	.	4r	.	4r	4r
.	.	.	.	.	.	.	.	.	8B-\	-bi-	.	.	.	.	.	.
!	!	!	!	!	!	!	!LO:LB:g=original	!	!	!	!	!	!	!	!	!
=61	=61	=61	=61	=61	=61	=61	=61	=61	=61	=61	=61	=61	=61	=61	=61	=61
!	!	!	!	!	!	!	!	!	!	!	!LO:N:vis=00	!	!LO:N:vis=00	!	!	!
8r	.	8r	8r	.	8r	.	2r	.	4.c\	-ta-	0r	.	0r	.	2r	2r
!	!	!	!LO:LB:g=original	!	!	!	!	!	!	!	!	!	!	!	!	!
8E\L	6	8E\L	8g/L	.	8gg\L	.	.	.	.	.	.	.	.	.	.	.
8C\	.	8C\	8g/	.	8ee\	.	.	.	.	.	.	.	.	.	.	.
8E\J	5-	8E\J	8g/J	.	8gg\J	.	.	.	8B-\	-re	.	.	.	.	.	.
=62	=62	=62	=62	=62	=62	=62	=62	=62	=62	=62	=62	=62	=62	=62	=62	=62
4F\	.	4F\	4f/	.	4aa\	.	8r	.	8A/	fa-	.	.	.	.	2r	2r
.	.	.	.	.	.	.	8F\L	ste-	8F/	-cit	.	.	.	.	.	.
4r	.	4r	4r	.	4r	.	8A\J	.	4r	.	.	.	.	.	.	.
.	.	.	.	.	.	.	8B-\	-ri-	.	.	.	.	.	.	.	.
=63	=63	=63	=63	=63	=63	=63	=63	=63	=63	=63	=63	=63	=63	=63	=63	=63
!	!	!	!LO:N:vis=00	!	!	!	!	!	!	!	!	!	!	!	!	!
8r	.	8r	0r	.	8r	.	4.c\	-lem	2r	.	.	.	.	.	2r	2r
!	!	!LO:LB:g=original	!	!	!	!	!	!	!	!	!	!	!	!	!	!
8E\L	.	8E\L	.	.	8gg\L	.	.	.	.	.	.	.	.	.	.	.
8C\	.	8C\	.	.	8ee\	.	.	.	.	.	.	.	.	.	.	.
8E\J	.	8E\J	.	.	8gg\J	.	8B-\	in	.	.	.	.	.	.	.	.
=64	=64	=64	=64	=64	=64	=64	=64	=64	=64	=64	=64	=64	=64	=64	=64	=64
8F\L	.	8F\L	.	.	4aa\	.	8A\	do-	4r	.	.	.	.	.	2r	2r
16F\L	.	16F\L	.	.	.	.	8F\	-mo	.	.	.	.	.	.	.	.
16G\JJ	.	16G\JJ	.	.	.	.	.	.	.	.	.	.	.	.	.	.
!LO:LB:g=original	!	!	!	!	!	!	!	!	!	!	!	!	!	!	!	!
8A\L	.	8A\L	.	.	4r	.	8r	.	8r	.	.	.	.	.	.	.
8F\J	.	8F\J	.	.	.	.	8A\L	ma-	(8c\	ma-	.	.	.	.	.	.
!	!	!	!	!	!LO:LB:g=original	!	!	!	!	!	!	!	!	!	!	!
=65	=65	=65	=65	=65	=65	=65	=65	=65	=65	=65	=65	=65	=65	=65	=65	=65
!	!	!	!	!	!LO:N:vis=00	!	!	!	!	!	!LO:N:vis=00	!	!LO:N:vis=00	!	!	!
4F\	6 43	4F\	.	.	0r	.	8B-\J	.	8d\)	.	0r	.	0r	.	2r	2r
.	.	.	.	.	.	.	8A\	-trem	8c\	-trem	.	.	.	.	.	.
8r	.	8r	.	.	.	.	8B-\	fi-	8d\	fi-	.	.	.	.	.	.
8F\	4 2	8F\	.	.	.	.	8G\	-li-	8B-\	-li-	.	.	.	.	.	.
!	!	!	!	!	!	!	!	!	!LO:LB:g=original	!	!	!	!	!	!	!
=66	=66	=66	=66	=66	=66	=66	=66	=66	=66	=66	=66	=66	=66	=66	=66	=66
4F\	.	4F\	.	.	.	.	8A\L	-o-	8c\L	-o-	.	.	.	.	2r	2r
.	.	.	.	.	.	.	16G\L	.	16B-\L	.	.	.	.	.	.	.
.	.	.	.	.	.	.	16A\JJ	.	16c\JJ	.	.	.	.	.	.	.
8r	.	8r	.	.	.	.	8B-\	-rum	8d\	-rum	.	.	.	.	.	.
8F\	.	8F\	.	.	.	.	8A\	lae-	8c\	Lae-	.	.	.	.	.	.
=67	=67	=67	=67	=67	=67	=67	=67	=67	=67	=67	=67	=67	=67	=67	=67	=67
!	!	!	!LO:N:vis=0	!	!	!	!	!	!	!	!	!	!	!	!	!
4.G\	-	4.G\	1r	.	.	.	4.G\	-tan-	8B-\L	-tan-	.	.	.	.	2r	2r
.	.	.	.	.	.	.	.	.	8G\	.	.	.	.	.	.	.
.	.	.	.	.	.	.	.	.	8A\	.	.	.	.	.	.	.
8F\	.	8F\	.	.	.	.	8F\	-tem	8B-\J	.	.	.	.	.	.	.
=68	=68	=68	=68	=68	=68	=68	=68	=68	=68	=68	=68	=68	=68	=68	=68	=68
8r	.	8r	.	.	.	.	8r	.	4.c\	.	.	.	.	.	2r	2r
8E\L	6	8E\L	.	.	.	.	8G\L	Lae-	.	.	.	.	.	.	.	.
8C\	.	8C\	.	.	.	.	8E\	.	.	.	.	.	.	.	.	.
8E\J	.	8E\J	.	.	.	.	8G\J	.	8B-\	.	.	.	.	.	.	.
!	!	!	!	!	!	!	!LO:LB:g=original	!	!	!	!	!	!	!	!	!
=69	=69	=69	=69	=69	=69	=69	=69	=69	=69	=69	=69	=69	=69	=69	=69	=69
!LO:TX:a:t=P:problem:mixed beam	!	!	!	!	!	!	!	!	!	!	!	!	!	!	!	!
8F\L	.	8F\L	2r	.	2r	.	4F\	.	4A/	.	2r	.	2r	.	2r	2r
8A\	.	8A\J	.	.	.	.	.	.	.	.	.	.	.	.	.	.
!	!	!LO:LB:g=original	!	!	!	!	!	!	!	!	!	!	!	!	!	!
!	!	!LO:TX:a:t=P:problem:mixed beam	!	!	!	!	!	!	!	!	!	!	!	!	!	!
8c\	.	8c\L	.	.	.	.	4E\	-tan-	4G/	.	.	.	.	.	.	.
8C/J	.	8C/J	.	.	.	.	.	.	.	.	.	.	.	.	.	.
=70	=70	=70	=70	=70	=70	=70	=70	=70	=70	=70	=70	=70	=70	=70	=70	=70
!LO:TX:a:t=Tutti	!	!LO:TX:a:t=Tut(ti)&colon;	!	!	!	!	!	!	!	!	!	!	!	!	!	!
8F\L	.	8F\L	16c/LL	.	16f/LL	.	4F\	-tem	4F/	-tem	4r	.	4r	.	16f\LL	4r
.	.	.	16c/	.	16f/	.	.	.	.	.	.	.	.	.	16f\	.
8F\	.	8F\	16c/	.	16f/	.	.	.	.	.	.	.	.	.	16f\	.
.	.	.	16c/JJ	.	16f/JJ	.	.	.	.	.	.	.	.	.	16f\JJ	.
8F\	.	8F\	16f/LL	.	16a/LL	.	8r	.	8r	.	8r	.	8r	.	16f\LL	16a\LL
.	.	.	16f/	.	16a/	.	.	.	.	.	.	.	.	.	16f\	16a\
8F\J	.	8F\J	16f/	.	16a/	.	8F\	Lae-	8F/	Lae-	8f\	Lae-	8a\	lae-	16f\	16a\
.	.	.	16f/JJ	.	16a/JJ	.	.	.	.	.	.	.	.	.	16f\JJ	16a\JJ
!	!	!	!	!	!	!	!	!	!	!	!	!	!LO:LB:g=original	!	!	!
=71	=71	=71	=71	=71	=71	=71	=71	=71	=71	=71	=71	=71	=71	=71	=71	=71
8F\L	.	8F\L	16a/LL	.	16cc\LL	.	16F\LL	-tan-	8c\	-tan-	8f\	-tan-	8a\	-tan-	8a\L	8cc\L
.	.	.	16a/	.	16cc\	.	16G\	.	.	.	.	.	.	.	.	.
8F\	.	8F\	16a/	.	16cc\	.	16F\	.	4A/	.	4a\	.	4cc\	.	8a\	8cc\
.	.	.	16a/JJ	.	16cc\JJ	.	16G\JJ	.	.	.	.	.	.	.	.	.
8F\	.	8F\	16cc\LL	.	16ff\LL	.	16F\LL	.	.	.	.	.	.	.	8a\	8cc\
.	.	.	16cc\	.	16ff\	.	16G\	.	.	.	.	.	.	.	.	.
8F\J	.	8F\J	16cc\	.	16ff\	.	16F\	.	8F/	.	8cc\	.	8ff\	.	8a\J	8cc\J
.	.	.	16cc\JJ	.	16ff\JJ	.	16G\JJ	.	.	.	.	.	.	.	.	.
=72	=72	=72	=72	=72	=72	=72	=72	=72	=72	=72	=72	=72	=72	=72	=72	=72
8F\L	.	8F\L	16ff\LL	.	16aa\LL	.	16F\LL	.	8C/	.	8cc\	.	8ff\	.	16cc\LL	16ff\LL
.	.	.	16ff\	.	16aa\	.	16G\	.	.	.	.	.	.	.	16cc\	16ff\
8F\	.	8F\	16ff\	.	16aa\	.	16F\	.	4F/	.	4a\	.	4cc\	.	16cc\	16ff\
.	.	.	16ff\JJ	.	16aa\JJ	.	16G\JJ	.	.	.	.	.	.	.	16cc\JJ	16ff\JJ
!	!	!	!LO:LB:g=original	!	!	!	!	!	!	!	!	!	!	!	!	!
8F\	.	8F\	16cc\LL	.	16ff\LL	.	16F\LL	.	.	.	.	.	.	.	16a\LL	16cc\LL
.	.	.	16cc\	.	16ff\	.	16G\	.	.	.	.	.	.	.	16a\	16cc\
8F\J	.	8F\J	16cc\	.	16ff\	.	16F\	.	8A/	.	8f\	.	8a\	.	16a\	16cc\
.	.	.	16cc\JJ	.	16ff\JJ	.	16G\JJ	.	.	.	.	.	.	.	16a\JJ	16cc\JJ
!	!	!	!	!	!	!	!	!	!LO:LB:g=original	!	!	!	!	!	!	!
=73	=73	=73	=73	=73	=73	=73	=73	=73	=73	=73	=73	=73	=73	=73	=73	=73
8F\L	.	8F\L	16a/LL	.	16cc\LL	.	16F\LL	.	8c\L	.	8c\L	.	8f\L	.	16f\LL	16a\LL
.	.	.	16a/	.	16cc\	.	16G\	.	.	.	.	.	.	.	16f\	16a\
8F\	.	8F\	16a/	.	16cc\	.	16F\	.	8A\	.	8f\	.	8a\	.	16f\	16a\
.	.	.	16a/JJ	.	16cc\JJ	.	16G\JJ	.	.	.	.	.	.	.	16f\JJ	16a\JJ
8F\	.	8F\	16a/LL	.	16ff\LL	.	16F\LL	.	8F\	.	8a\	.	8cc\	.	16a\LL	16cc\LL
.	.	.	16a/	.	16ff\	.	16G\	.	.	.	.	.	.	.	16a\	16cc\
8F\J	.	8F\J	16a/	.	16ff\	.	16F\	.	8A\J	.	8a\J	.	8ff\J	.	16a\	16cc\
.	.	.	16a/JJ	.	16ff\JJ	.	16G\JJ	.	.	.	.	.	.	.	16a\JJ	16cc\JJ
!LO:LB:g=original	!	!	!	!	!	!	!	!	!	!	!LO:LB:g=original	!	!	!	!	!
=74	=74	=74	=74	=74	=74	=74	=74	=74	=74	=74	=74	=74	=74	=74	=74	=74
8E\L	6	8E\L	8g/	.	8gg\L	.	8E\L	.	8G/	.	8a\L	.	4.gg\	.	8c\L	8.g\L
8C\	.	8C\	4cc\	.	8ee\	.	8C\	.	4c\	.	8f\	.	.	.	8c\	.
.	.	.	.	.	.	.	.	.	.	.	.	.	.	.	.	16g\Jk
8D\	.	8D\	.	.	8ff\	.	8D\	.	.	.	8g\	.	.	.	8c\	8g\L
8E\J	-5	8E\J	8b-\	.	8gg\J	.	8E\J	.	8B-\	.	8a\J	.	8b-\	.	8g\J	16cc\L
.	.	.	.	.	.	.	.	.	.	.	.	.	.	.	.	16b-\JJ
!	!	!LO:LB:g=original	!	!	!LO:LB:g=original	!	!	!	!	!	!	!	!	!	!	!
=75	=75	=75	=75	=75	=75	=75	=75	=75	=75	=75	=75	=75	=75	=75	=75	=75
!LO:TX:a:t=P:problem:mixed beam	!	!	!	!	!	!	!LO:TX:a:t=P:problem:mixed beam	!	!	!	!	!	!	!	!	!
8F\L	.	8F/L	4a/	.	4ff\	.	8F\L	.	8A\L	.	4f\	.	8a\L	.	8f/L	8a\L
8AA\	.	8AA/	.	.	.	.	8BB-/J	.	8d\J	.	.	.	8g\J	.	8f/	8a\
8C\	.	8C/	4g/	.	4eet\	.	4C/	.	4c\	.	4e\	.	4g\	.	8c/	8g\
8CC/J	.	8CC/J	.	.	.	.	.	.	.	.	.	.	.	.	8c/J	8g\J
=76	=76	=76	=76	=76	=76	=76	=76	=76	=76	=76	=76	=76	=76	=76	=76	=76
*	*	*	*	*	*2\right	*	*	*	*2\right	*	*2\right	*	*2\right	*	*	*
!	!	!	!LO:TX:a:t=Gloria Tacet	!	!LO:TX:a:t=Gloria Tacet	!	!LO:TX:a:t=Gloria Tacet	!	!LO:TX:a:t=Gloria Tacet	!	!LO:TX:a:t=Verte Gloria	!	!	!	!LO:TX:a:t=Gloria Tacet	!
2FF/	.	2FF/	2a/	.	2ff\	.	2FF/	-tem.	2c\	-tem.	2f\	-tem.	2a\	-tem	2F/	2a\
!	!	!	!	!	!	!	!	!	!LO:LB:g=original	!	!LO:PB:g=original	!	!LO:LB:g=original	!	!	!
=77||	=77||	=77||	=77||	=77||	=77||	=77||	=77||	=77||	=77||	=77||	=77||	=77||	=77||	=77||	=77||	=77||
*M3/4	*	*M3/4	*M3/4	*	*M3/4	*	*M3/4	*	*M3/4	*	*M3/4	*	*M3/4	*	*M3/4	*M3/4
*	*	*	*	*	*	*	*	*	*	*	*	*	*^	*	*	*
!LO:TX:a:t=Solo Ada(gio)	!	!LO:TX:a:t=Solo Ada(gio)&colon;	!	!	!	!	!	!	!	!	!	!	!LO:TX:a:t=adagio	!	!	!	!
!LO:TX:b:t=Gloria	!	!LO:TX:b:t=gloria	!	!	!	!	!	!	!	!	!	!	!	!	!	!	!
4D\	.	4D\	2.ryy	.	2.ryy	.	2.ryy	.	2.ryy	.	2.r	.	(4a/	4f\	Glo-	2.ryy	2.ryy
4D\	.	4D\	.	.	.	.	.	.	.	.	.	.	4dd\)	2ryy	.	.	.
4D\	.	4D\	.	.	.	.	.	.	.	.	.	.	8ee\	.	-ri-	.	.
.	.	.	.	.	.	.	.	.	.	.	.	.	8dd\	.	-a	.	.
*	*	*	*	*	*	*	*	*	*	*	*	*	*v	*v	*	*	*
=78	=78	=78	=78	=78	=78	=78	=78	=78	=78	=78	=78	=78	=78	=78	=78	=78
4A\	.	4A\	2.ryy	.	2.ryy	.	2.ryy	.	2.ryy	.	4e\	Glo-	4cc#X\	Pa-	2.ryy	2.ryy
4A\	#	4A\	.	.	.	.	.	.	.	.	4a\	-ri-	4a\	-tri	.	.
4A\	7	4A\	.	.	.	.	.	.	.	.	4g\	-a	4r	.	.	.
=79	=79	=79	=79	=79	=79	=79	=79	=79	=79	=79	=79	=79	=79	=79	=79	=79
4D\	7 #	4D\	2.ryy	.	2.ryy	.	2.ryy	.	2.ryy	.	8f#X\L	Pa-	(4a\	glo-	2.ryy	2.ryy
.	.	.	.	.	.	.	.	.	.	.	8e\J	.	.	.	.	.
4D\	.	4D\	.	.	.	.	.	.	.	.	4d\	-tri	4dd\)	.	.	.
4D\	.	4D\	.	.	.	.	.	.	.	.	4r	.	8ccn\	-ri-	.	.
.	.	.	.	.	.	.	.	.	.	.	.	.	8cc\	-a	.	.
=80	=80	=80	=80	=80	=80	=80	=80	=80	=80	=80	=80	=80	=80	=80	=80	=80
4G\	n7	4G\	2.ryy	.	2.ryy	.	2.ryy	.	2.ryy	.	4d\	glo-	8bn\	Fi-	2.ryy	2.ryy
.	.	.	.	.	.	.	.	.	.	.	.	.	8a\	-li-	.	.
4G\	.	4G\	.	.	.	.	.	.	.	.	4g\	-ri-	4g\	-o	.	.
4G\	.	4G\	.	.	.	.	.	.	.	.	4fn\	-a	4r	.	.	.
!LO:LB:g=original	!	!LO:LB:g=original	!	!	!	!	!	!	!	!	!	!	!	!	!	!
=81	=81	=81	=81	=81	=81	=81	=81	=81	=81	=81	=81	=81	=81	=81	=81	=81
4C/	.	4C/	2.ryy	.	2.ryy	.	2.ryy	.	2.ryy	.	8e\	Fi-	(4g\	glo-	2.ryy	2.ryy
.	.	.	.	.	.	.	.	.	.	.	8d\	-li-	.	.	.	.
4C/	7	4C/	.	.	.	.	.	.	.	.	4c\	-o	4cc\)	.	.	.
4C/	.	4C/	.	.	.	.	.	.	.	.	4r	.	8b-X\	-ri-	.	.
.	.	.	.	.	.	.	.	.	.	.	.	.	8b-\	-a	.	.
=82	=82	=82	=82	=82	=82	=82	=82	=82	=82	=82	=82	=82	=82	=82	=82	=82
4F\	.	4F\	2.ryy	.	2.ryy	.	2.ryy	.	2.ryy	.	2f\	et	2a\	et	2.ryy	2.ryy
4F\	.	4F\	.	.	.	.	.	.	.	.	.	.	.	.	.	.
4F\	.	4F\	.	.	.	.	.	.	.	.	4f\	Spi-	4a\	spi-	.	.
!	!	!	!	!	!	!	!	!	!	!	!LO:LB:g=original	!	!LO:LB:g=original	!	!	!
=83	=83	=83	=83	=83	=83	=83	=83	=83	=83	=83	=83	=83	=83	=83	=83	=83
4F\	.	4F\	2.ryy	.	2.ryy	.	2.ryy	.	2.ryy	.	4.f\	-ri-	4a\	-ri-	2.ryy	2.ryy
4r	.	4r	.	.	.	.	.	.	.	.	.	.	4bn\	-tu-	.	.
.	.	.	.	.	.	.	.	.	.	.	8f\	-tu-	.	.	.	.
4E\	6\	4E\	.	.	.	.	.	.	.	.	4g\	-i	4cc#X\	-i	.	.
=84	=84	=84	=84	=84	=84	=84	=84	=84	=84	=84	=84	=84	=84	=84	=84	=84
4D\	.	4D\	2.ryy	.	2.ryy	.	2.ryy	.	2.ryy	.	4f\	San-	2.dd\	San-	2.ryy	2.ryy
4E\	.	4E\	.	.	.	.	.	.	.	.	4g\	.	.	.	.	.
4F\	.	4F\	.	.	.	.	.	.	.	.	4a\	.	.	.	.	.
=85	=85	=85	=85	=85	=85	=85	=85	=85	=85	=85	=85	=85	=85	=85	=85	=85
4G\	.	4G\	2.ryy	.	2.ryy	.	2.ryy	.	2.ryy	.	2b-\	.	4dd\	.	2.ryy	2.ryy
4G\	.	4G\	.	.	.	.	.	.	.	.	.	.	4ee\	.	.	.
4G#X\	-5	4G#X\	.	.	.	.	.	.	.	.	4bn\	.	4dd\	.	.	.
=86	=86	=86	=86	=86	=86	=86	=86	=86	=86	=86	=86	=86	=86	=86	=86	=86
*2\right	*	*2\right	*	*	*	*	*	*	*	*	*	*	*	*	*	*
2.A\	#	2.A\	2.ryy	.	2.ryy	.	2.ryy	.	2.ryy	.	2.e\	-cto.	2.cc#X\	-cto	2.ryy	2.ryy
!LO:LB:g=original	!	!	!	!	!	!	!	!	!	!	!LO:LB:g=original	!	!LO:LB:g	!	!	!
=87||	=87||	=87||	=87||	=87||	=87||	=87||	=87||	=87||	=87||	=87||	=87||	=87||	=87||	=87||	=87||	=87||
*M2/2	*	*M2/2	*M2/2	*	*M2/2	*	*M2/2	*	*M2/2	*	*M2/2	*	*M2/2	*	*M2/2	*M2/2
*met(c|)	*	*met(c|)	*met(c|)	*	*met(c|)	*	*met(c|)	*	*met(c|)	*	*met(c|)	*	*met(c|)	*	*met(c|)	*met(c|)
*	*	*	*	*	*	*	*2\right	*	*	*	*	*	*	*	*	*
!LO:TX:a:t=vivace	!	!LO:TX:a:t=vivace	!	!	!LO:TX:a:t=Vivace	!	!LO:TX:a:t=Vivace	!	!LO:TX:a:t=2	!	!	!	!LO:TX:a:t=Vivace	!	!	!
!LO:TX:b:t=Sicut erat	!	!LO:TX:b:t=Sicut erat	!LO:TX:b:t=Sicut erat	!	!LO:TX:b:t=Sicut erat	!	!LO:TX:a:t=|	!	!	!	!	!	!	!	!	!
2F\	.	2F\	00r	.	00r	.	2F\	Si-	0r	.	00r	.	00r	.	1r	1r
!	!	!	!	!	!	!	!LO:TX:a:t=|	!	!	!	!	!	!	!	!	!
2F\	.	2F\	.	.	.	.	2F\	-cut	.	.	.	.	.	.	.	.
=88	=88	=88	=88	=88	=88	=88	=88	=88	=88	=88	=88	=88	=88	=88	=88	=88
!LO:TX:a:t=|	!	!	!	!	!	!	!LO:TX:a:t=|	!	!	!	!	!	!	!	!	!
2.G\	.	2.G\	.	.	.	.	2.G\	e-	.	.	.	.	.	.	1r	1r
!LO:TX:a:t=|	!	!	!	!	!	!	!LO:TX:a:t=|	!	!	!	!	!	!	!	!	!
4F\	.	4F\	.	.	.	.	4F\	-rat	.	.	.	.	.	.	.	.
=89	=89	=89	=89	=89	=89	=89	=89	=89	=89	=89	=89	=89	=89	=89	=89	=89
*^	*	*^	*	*	*	*	*	*	*	*	*	*	*	*	*	*
!	!	!	!	!	!	!	!	!	!LO:TX:a:t=|	!	!	!	!	!	!	!	!	!
2.c/	4E\	.	2.c/	4E\	.	.	.	.	4E\	in	2.c\	Si-	.	.	.	.	1r	1r
!	!	!	!	!	!	!	!	!	!LO:TX:a:t=|	!	!	!	!	!	!	!	!	!
.	4D\	.	.	4D\	.	.	.	.	4D\	prin-	.	.	.	.	.	.	.	.
!	!	!	!	!	!	!	!	!	!LO:TX:a:t=|	!	!	!	!	!	!	!	!	!
.	4E\	.	.	4E\	.	.	.	.	4E\	-ci-	.	.	.	.	.	.	.	.
!	!	!	!	!	!	!	!	!	!LO:TX:a:t=|	!	!	!	!	!	!	!	!	!
4c/	4C\	.	4c/	4C\	.	.	.	.	4C/	-pi-	4c\	-cut	.	.	.	.	.	.
=90	=90	=90	=90	=90	=90	=90	=90	=90	=90	=90	=90	=90	=90	=90	=90	=90	=90	=90
2.d/	4F\	.	2.d/	4F\	.	.	.	.	4F\	-o	2.d\	e-	.	.	.	.	1r	1r
.	4E\	.	.	4E\	.	.	.	.	4E\	et	.	.	.	.	.	.	.	.
.	4F\	.	.	4F\	.	.	.	.	4F\	nunc	.	.	.	.	.	.	.	.
4c/	4D\	.	4c/	4D\	.	.	.	.	4D\	.	4c\	-rat	.	.	.	.	.	.
=91	=91	=91	=91	=91	=91	=91	=91	=91	=91	=91	=91	=91	=91	=91	=91	=91	=91	=91
4Bn/	2.G\	.	4Bn/	2.G\	0r	.	00r	.	2.G\	Sem-	4Bn\	in	0r	.	00r	.	1r	1r
4A/	.	.	4A/	.	.	.	.	.	.	.	4A\	prin-	.	.	.	.	.	.
4B/	.	.	4B/	.	.	.	.	.	.	.	4B\	-ci-	.	.	.	.	.	.
4G/	4F\	.	4G/	4F\	.	.	.	.	4F\	-per	4G/	-pi-	.	.	.	.	.	.
!	!	!	!	!	!	!	!	!	!LO:LB:g=original	!	!	!	!	!	!	!	!	!
=92	=92	=92	=92	=92	=92	=92	=92	=92	=92	=92	=92	=92	=92	=92	=92	=92	=92	=92
2.c/	4E\	.	2.c/	4E\	.	.	.	.	4E\	et	2.c\	-o	.	.	.	.	1r	1r
.	4C\	.	.	4C\	.	.	.	.	4C/	.	.	.	.	.	.	.	.	.
.	4D\	.	.	4D\	.	.	.	.	4D/	in	.	.	.	.	.	.	.	.
4B-X/	4E\	.	4B-X/	4E\	.	.	.	.	4E/	.	4B-X\	et	.	.	.	.	.	.
!	!	!	!LO:LB:g=original	!	!	!	!	!	!	!	!	!	!	!	!	!	!	!
=93	=93	=93	=93	=93	=93	=93	=93	=93	=93	=93	=93	=93	=93	=93	=93	=93	=93	=93
4A/	4F\	.	4A/	4F\	2.f/	.	.	.	4F\	sae-	(4A\	nunc	2.f\	Si-	.	.	1r	1r
4A\	4ryy	6	4A\	4ryy	.	.	.	.	4A\	-cu-	4c\)	.	.	.	.	.	.	.
4G\	2ryy	.	4G\	2ryy	.	.	.	.	4G\	-la	(4B-\	et	.	.	.	.	.	.
4F\	.	.	4F\	.	4f/	.	.	.	4F\	.	4A\)	.	4f\	-cut	.	.	.	.
*v	*v	*	*	*	*	*	*	*	*	*	*	*	*	*	*	*	*	*
*	*	*v	*v	*	*	*	*	*	*	*	*	*	*	*	*	*	*
=94	=94	=94	=94	=94	=94	=94	=94	=94	=94	=94	=94	=94	=94	=94	=94	=94
4B-\	6	4B-\	2.g/	.	.	.	4B-\	sae-	(4d\	sem-	2.g\	e-	.	.	1r	1r
4G\	.	4G\	.	.	.	.	4G\	-cu-	4B-\)	.	.	.	.	.	.	.
4A\	.	4A\	.	.	.	.	4A\	-lo-	(4c\	.	.	.	.	.	.	.
4B-\	5	4B-\	4f/	.	.	.	4B-\	-rum	4d\)	.	4f\	-rat	.	.	.	.
!LO:LB:g=original	!	!	!	!	!	!	!	!	!LO:LB:g=original	!	!	!	!	!	!	!
=95	=95	=95	=95	=95	=95	=95	=95	=95	=95	=95	=95	=95	=95	=95	=95	=95
4c\	.	4c\	4e/	.	2.cc\	.	4c\	.	2G/	.	2e\	in	2.cc\	Si-	1r	2.cc\
4C/	.	4C/	4e/	.	.	.	4C/	a-	.	.	.	.	.	.	.	.
4E/	6	4E/	4g/	.	.	.	4E/	.	2c\	.	(4g\	prin-	.	.	.	.
4C/	.	4C/	4e/	.	4cc\	.	4C/	-men	.	.	4e\)	.	4cc\	-cut	.	4cc\
=96	=96	=96	=96	=96	=96	=96	=96	=96	=96	=96	=96	=96	=96	=96	=96	=96
4F\	6	4F\	4a/	.	2.dd\	.	4F\	.	4A\	-per	(4a\	-ci-	2.dd\	e-	2.f\	2.ff\
4D\	.	4D\	4f/	.	.	.	4D\	a-	2d\	si-	4f\)	.	.	.	.	.
4E\	.	4E\	4g/	.	.	.	4E\	.	.	.	(4g\	-pi-	.	.	.	.
4F\	.	4F\	4a/	.	4cc\	.	4F\	.	4d\	-cut	4a\)	.	4cc\	-rat	4a\	4cc\
=97	=97	=97	=97	=97	=97	=97	=97	=97	=97	=97	=97	=97	=97	=97	=97	=97
2.G\	n	2.G\	4d/	.	4bn/	.	2.G\	.	4d\	e-	4g\	-o	4bn\	in	4g\	4bX\
.	.	.	4d/	.	4a/	.	.	.	4d\	-rat	4g\	et	4a\	prin-	4g\	4a\
.	.	.	4d/	.	4b/	.	.	.	4d\	in	4g\	nunc	4b\	-ci-	4g\	4b\
4F\	4 2	4F\	4d/	.	4g/	.	4F\	.	4d\	prin-	4g\	et	4g\	-pi-	4g\	4g\
=98	=98	=98	=98	=98	=98	=98	=98	=98	=98	=98	=98	=98	=98	=98	=98	=98
4E\	6	4E\	4g/	.	2.cc\	.	4E\	.	4c\	-ci-	4g\	sem-	2.cc\	-o	2.g\	2.cc\
4C\	.	4C\	4e/	.	.	.	4C/	.	4c\	-pi-	4e\	-per	.	.	.	.
4D\	-5	4D\	4f/	.	.	.	4D/	.	4c\	-o	4f\	et	.	.	.	.
4E\	.	4E\	4g/	.	4bn\	.	4E/	.	4c\	et	4g\	in	4b-X\	et	4f\	4b-\
!	!	!LO:LB:g=original	!LO:LB:g=original	!	!LO:LB:g=original	!	!	!	!	!	!LO:LB:g=original	!	!	!	!	!
=99	=99	=99	=99	=99	=99	=99	=99	=99	=99	=99	=99	=99	=99	=99	=99	=99
2.F\	.	2.F\	2.c/	.	4a/	.	2.F\	.	4c\	nunc	2a\	sae-	4a\	nunc	4f\	4a\
.	.	.	.	.	4g/	.	.	.	4c\	.	.	.	4g\	.	4f\	4g\
.	.	.	.	.	4a/	.	.	.	4c\	et	4a\	-cu-	4a\	et	4f\	4a\
4E-X\	4 2	4E-X\	4c/	.	4f/	.	4E-X\	.	4c\	.	4a\	-la	4f/	.	4f\	4f\
!	!	!	!	!	!	!	!LO:LB:g=original	!	!	!	!	!	!	!	!	!
=100	=100	=100	=100	=100	=100	=100	=100	=100	=100	=100	=100	=100	=100	=100	=100	=100
4D\	65	4D\	4f/	.	2b-/	.	4D\	.	2.d\	sem-	(4f\	sae-	2b-\	sem-	2g\	2b-\
4En\	.	4En\	4g/	.	.	.	4En\	.	.	.	4g\)	.	.	.	.	.
2F\	.	2F\	2a/	.	2a/	.	2F\	.	.	.	2a\	-cu-	2a\	-per	2f\	2g\
.	.	.	.	.	.	.	.	.	4c\	-per	.	.	.	.	.	.
!	!	!	!	!	!	!	!	!	!	!	!	!	!LO:LB:g=original	!	!	!
=101	=101	=101	=101	=101	=101	=101	=101	=101	=101	=101	=101	=101	=101	=101	=101	=101
2F\	4 2	2F\	2bn/	.	2g/	.	2F\	.	2d\	et	2bn\	-lo-	2g\	et	2B-/	2g\
2E\	6	2E\	4cc\	.	[2cc\	.	2E\	.	2c\	in	2g\	-rum	2cc\	in	2f\	2cc\
.	.	.	4g\	.	.	.	.	.	.	.	.	.	.	.	.	.
!	!	!	!	!	!	!	!	!	!LO:LB:g=original	!	!	!	!	!	!	!
=102	=102	=102	=102	=102	=102	=102	=102	=102	=102	=102	=102	=102	=102	=102	=102	=102
2D\	7	2D\	2.f/	.	2cc\]	.	2D\	.	2A\	sae-	1f	a-	2cc\	sae-	2f\	2cc\
2G\	7	2G\	.	.	2bnt\	.	2G\	.	2Bn\	-cu-	.	.	4bn\	-cu-	2e\	2bX\
.	.	.	4f/	.	.	.	.	.	.	.	.	.	4b\	-la	.	.
=103	=103	=103	=103	=103	=103	=103	=103	=103	=103	=103	=103	=103	=103	=103	=103	=103
4C/	.	4C/	4e/	.	4cc\	.	4C/	.	2G/	-la	4e\	-men	4cc\	sae-	2.g\	2.cc\
4C/	.	4C/	2cc\	.	4ee\	.	4C/	.	.	.	(4e\	a-	4cc\	-cu-	.	.
4D/	.	4D/	.	.	4ff\	.	4D/	.	4r	.	4f\	.	(4cc\	-lo-	.	.
4E/	.	4E/	4b-X\	.	4gg\	.	4E/	.	4c\	sae-	4g\)	.	4b-\)	-rum	4g\	4b-\
!LO:LB:g=original	!	!	!	!	!	!	!	!	!	!	!	!	!	!	!	!
=104	=104	=104	=104	=104	=104	=104	=104	=104	=104	=104	=104	=104	=104	=104	=104	=104
4F\	.	4F\	4a/	.	4aa\	.	4F\	.	2c\	.	2.g\	.	2a\	a-	2f\	2a\
4F\	.	4F\	2ff\	.	4aa\	.	4F\	.	.	.	.	.	.	.	.	.
4G\	.	4G\	.	.	4bb-\	.	4G\	.	4B-\	-cu-	.	.	4b-\	.	2r	2r
4A\	-5	4A\	4ee-X\	.	4ccc\	.	4A\	.	4A\	.	4e-X\	.	4cc\	.	.	.
!	!	!LO:LB:g=original	!	!	!	!	!	!	!	!	!	!	!	!	!	!
=105	=105	=105	=105	=105	=105	=105	=105	=105	=105	=105	=105	=105	=105	=105	=105	=105
2B-\	.	2B-\	2dd\	.	2ddd\	.	2B-\	.	2d\	-lo-	2d\	.	2dd\	-men	2r	2r
2A\	6	2A\	2ff\	.	2ccc\	.	2A\	.	2c\	-rum	2f\	.	2r	.	2f\	2a\
!	!	!	!LO:LB:g=original	!	!	!	!	!	!	!	!	!	!	!	!	!
=106	=106	=106	=106	=106	=106	=106	=106	=106	=106	=106	=106	=106	=106	=106	=106	=106
2G\	7	2G\	2ff\	.	2.bb-\	.	2G\	.	2B-X\	a-	(2f\	.	1r	.	2.g\	2.b-\
2C/	7	2C/	2eet\	.	.	.	2C/	.	2d\	.	2e\)	.	.	.	.	.
.	.	.	.	.	4gg\	.	.	.	.	.	.	.	.	.	4g\	4g\
!	!	!	!	!	!	!	!	!	!	!	!LO:LB:g=original	!	!	!	!	!
=107	=107	=107	=107	=107	=107	=107	=107	=107	=107	=107	=107	=107	=107	=107	=107	=107
2F\	.	2F\	4ff\	.	2aa\	.	2F\	-men	2A\	-men	2f\	-men	2.cc\	a-	2f\	4a\
.	.	.	2cc\	.	.	.	.	.	.	.	.	.	.	.	.	2cc\
2r	.	2r	.	.	2r	.	2r	.	2r	.	2r	.	.	.	2r	.
.	.	.	4cc\	.	.	.	.	.	.	.	.	.	4cc\	-men	.	4cc\
=108	=108	=108	=108	=108	=108	=108	=108	=108	=108	=108	=108	=108	=108	=108	=108	=108
*	*	*	*	*	*	*	*	*	*	*ij	*	*ij	*	*	*	*
2.F\	6	2.F\	2.dd\	.	4aa\	.	2.F\	a-	2.A\	a-	2.a\	a-	2.dd\	a-	2.a\	2.dd\
.	.	.	.	.	2a/	.	.	.	.	.	.	.	.	.	.	.
4F\	6 5	4F\	4cc\	.	4aa\	.	4F\	-men	4d\	-men	4a\	-men	4cc\	.	4a\	4cc\
*	*	*	*	*	*	*	*	*	*	*	*	*Xij	*	*	*	*
!	!	!	!	!	!LO:LB:g=original	!	!	!	!LO:LB:g=original	!	!	!	!LO:LB:g=original	!	!	!
=109	=109	=109	=109	=109	=109	=109	=109	=109	=109	=109	=109	=109	=109	=109	=109	=109
2.G\	-	2.G\	4b-/	.	2.bb-\	.	2.G\	a-	2.d\	a-	2.b-\	a-	4b-\	.	4b-\	4b-\
.	.	.	4g/	.	.	.	.	.	.	.	.	.	4g/	.	4g\	4g\
.	.	.	4a/	.	.	.	.	.	.	.	.	.	4a/	.	4a\	4a\
4F\	.	4F\	4b-/	.	4aa\	.	4F\	.	4d\	-men	4a\	.	4b-\	.	4b-\	4b-\
!	!	!	!	!	!	!	!LO:LB:g=original	!	!	!	!	!	!	!	!	!
=110	=110	=110	=110	=110	=110	=110	=110	=110	=110	=110	=110	=110	=110	=110	=110	=110
4E\	.	4E\	2.cc\	.	4gg\	.	4E\	.	2.c\	a-	4g\	.	2.cc\	.	2.g\	2.cc\
4C/	.	4C\	.	.	4ee\	.	4C/	.	.	.	4e\	.	.	.	.	.
4D/	.	4D\	.	.	4ff\	.	4D/	.	.	.	4f\	.	.	.	.	.
4E\	.	4E\	4b-\	.	4gg\	.	4E/	.	4c\	-men	4g\	.	4b-\	.	4g\	4b-\
*	*	*	*	*	*	*	*	*	*	*Xij	*	*	*	*	*	*
=111	=111	=111	=111	=111	=111	=111	=111	=111	=111	=111	=111	=111	=111	=111	=111	=111
4F\	.	4F\	4a/	.	4aa\	.	4F\	.	4c\	a-	4a\	.	4a\	.	4f\	4a\
4G\	.	4G\	4b-/	.	4gg\	.	4G\	.	4B-\	.	4g\	.	4b-\	.	4f\	4cc\
4A\	.	4A\	4cc/	.	4ff\	.	4A\	.	4A\	.	4f\	.	4cc\	.	4f\	4b-\
4B-\	.	4B-\	4b-/	.	4gg\	.	4B-\	.	4d\	.	4g\	.	4b-\	.	4f\	4a\
!	!	!LO:LB:g=original	!	!	!	!	!	!	!	!	!	!	!	!	!	!
=112	=112	=112	=112	=112	=112	=112	=112	=112	=112	=112	=112	=112	=112	=112	=112	=112
2c\	6 4	2c\	2a/	.	2ff\	.	2c\	.	1c	.	2f\	.	2a\	.	2f\	2a\
!	!	!	!LO:LB:g=original	!	!	!	!	!	!	!	!	!	!	!	!	!
2C/	3	2C/	2g/	.	2ee\	.	2C/	.	.	.	2e\	.	2g\	.	2c/	2g\
!LO:LB:g=original	!	!	!	!	!	!	!	!	!	!	!	!	!	!	!	!
=113	=113	=113	=113	=113	=113	=113	=113	=113	=113	=113	=113	=113	=113	=113	=113	=113
2F\	.	2F\	4a/	.	4ff\	.	2F\	-men	2.c\	.	4f\	.	4a\	.	4f\	4a\
.	.	.	4a/	.	4ff\	.	.	.	.	.	2f\	.	2cc\	.	4f\	4a\
2E-X\	4 2	2E-X\	4a/	.	4ff\	.	2E-X\	a-	.	.	.	.	.	.	4f\	4a\
.	.	.	4a/	.	4ff\	.	.	.	4c\	.	4f\	.	4cc\	.	4f\	4a\
!	!	!	!	!	!	!	!	!	!	!	!LO:LB:g=original	!	!	!	!	!
=114	=114	=114	=114	=114	=114	=114	=114	=114	=114	=114	=114	=114	=114	=114	=114	=114
1D	-6	1D	1b-	.	2.ff\	.	1D	.	1B-	-men	1f	-men	1b-	.	2.f\	2.b-\
.	.	.	.	.	4ff\	.	.	.	.	.	.	.	.	.	4f\	4b-\
=115	=115	=115	=115	=115	=115	=115	=115	=115	=115	=115	=115	=115	=115	=115	=115	=115
1En	-5	1En	1b-	.	1gg	.	1En	.	1c	a-	1g	a-	1b-	.	1g	1b-
=116	=116	=116	=116	=116	=116	=116	=116	=116	=116	=116	=116	=116	=116	=116	=116	=116
1F	.	1F	1a	.	1aa	.	1F	-men	1c	-men.	1f	-men.	1a	-men.	1f	1a
==	==	==	==	==	==	==	==	==	==	==	==	==	==	==	==	==
*-	*-	*-	*-	*-	*-	*-	*-	*-	*-	*-	*-	*-	*-	*-	*-	*-
!!!system-decoration: [(s1,s2)][(s3,s4,s5,s6)][(s7,s8,s9)],[(s10)]
!!!ENC: Berenika Jozajtis
!!!END: 2024-05-17
!!!ENC: Leszek Kubiak
!!!END: 2024-09-01
